!!!!SEGMENT: pl-wtm--r-2493_hertz-michal--thema-con-variazioni.krn
!!!cenid: 18xx:3078
!!!COM: Hertz, Michał
!!!COM-rismID: pe41023359
!!!CDT: 1844/09/28-~1918
!!!CNT: Polish
!!!OTL: Thema con variazioni
!!!PDT:
!!!AGN:
!!!SMS-siglum: PL-Wtm
!!!SMS-shelfmark: R 2493
!!!SMS-shelfwork: W
!!!SMS-variant:
!!!SMS-altvar:
!!!NIFC-rismSourceID: 1001085650
!!!NIFC-rismChildID: 1001085650
!!!NIFC-islandoraID:
!!!URL-pdf-islandora:
!!!URL-scan:
!!!IIIF:
!!!ONB-nifc: UWAGA: temat i wariacje w jednym pliku
!!!OMD: andante cantabile.
!!!AIN: 4 empty
!!!key:
**kern	**dynam	**kern	**dynam	**kern	**dynam	**kern	**dynam
*part4	*part4	*part3	*part3	*part2	*part2	*part1	*part1
*staff4	*	*staff3	*	*staff2	*	*staff1	*
*Iempty	*	*Iempty	*	*Iempty	*	*Iempty	*
*I"	*	*I"	*	*I"	*	*I"	*
*clefF4	*	*clefC3	*	*clefG2	*	*clefG2	*
*k[b-]	*	*k[b-]	*	*k[b-]	*	*k[b-]	*
*F:	*	*F:	*	*F:	*	*F:	*
*M3/4	*	*M3/4	*	*M3/4	*	*M3/4	*
=1	=1	=1	=1	=1	=1	=1	=1
*MM66	*	*MM66	*	*MM66	*	*MM66	*
*2\right	*	*2\right	*	*2\right	*	*2\right	*
!	!	!	!	!	!	!LO:TX:a:t=[quarter]=66	!
!	!	!	!	!	!	!LO:TX:t=P:problem=dolne caudy-większość z prawej strony	!
!	!LO:DY:rj	!	!LO:DY:rj	!	!	!LO:TX:B:a:t=Theme.	!
[2.FF/	p	2C/	p	[>2.A/	p	(<4a/	p
.	.	.	.	.	.	4.g/	.
.	.	[4C#X/	.	.	.	.	.
.	.	.	.	.	.	8e/)	.
=2	=2	=2	=2	=2	=2	=2	=2
4.FF/]	.	4C#/]	.	2.A/]	.	(8e/	.
.	.	.	.	.	.	4g/)	.
.	.	[2D/	.	.	.	.	.
(8DD/L	.	.	.	.	.	(8f/L	.
8EE/	.	.	.	.	.	8e/	.
8FF/J	.	.	.	.	.	8d/J	.
=3	=3	=3	=3	=3	=3	=3	=3
2GG/)	.	4D/]	.	4G/	.	8c/L	.
.	.	.	.	.	.	8B-/J	.
.	.	(8G/L	.	(>2B-/	.	4.d/	.
.	.	8F/J	.	.	.	.	.
4C/	.	4E/)	.	.	.	.	.
.	.	.	.	.	.	8c/)	.
=4	=4	=4	=4	=4	=4	=4	=4
2FF/	.	(4F/	.	2A/)	.	(4c/	.
.	.	8C/L)	.	.	.	4A/)	.
.	.	(8C#X/	.	.	.	.	.
.	.	8qE/	.	.	.	.	.
4r	.	8.D/	.	4r	.	4r	.
.	.	16C#/Jk)	.	.	.	.	.
=5	=5	=5	=5	=5	=5	=5	=5
!!linebreak:original
2FF/	.	2Cn/	.	[2.A/	.	(4a/	.
.	.	.	<	.	<	.	.
.	.	.	.	.	.	4.g/	.
[4EE/	.	[4C#X/	.	.	.	.	.
.	.	.	.	.	.	8e/)	.
.	.	.	.	.	.	.	<
=6	=6	=6	=6	=6	=6	=6	=6
4EE/]	.	4C#X/]	.	2.A/]	.	(8e/	.
.	.	.	.	.	.	4g/)	.
(4DD/	<	2D/	[	.	.	.	.
.	.	.	.	.	.	(8f/L	.
8EE/L	.	.	.	.	[	8e/	.
8FF/J	.	.	.	.	.	8d/J	[
=7	=7	=7	=7	=7	=7	=7	=7
4GG/)	.	4Cn/	.	4G/	.	4e/)	.
.	.	.	.	.	.	8qg/	.
!	!	!	!LO:DY:rj	!	!	!	!
(8AA/L	.	(2F/	sf	(4c/	.	4.f/	sf
8AA-X/J	.	.	.	.	.	.	.
4GG/)	.	.	.	4Bn/	.	.	.
.	.	.	.	.	.	8e/	.
=8	=8	=8	=8	=8	=8	=8	=8
!	!	!LO:N:vis=4.	!	!	!	!	!
(4C/	.	4E/)	.	4c/)	.	4c/	.
.	[	.	.	.	.	.	.
4CC/)	.	4r	.	4r	.	8r	.
.	.	.	.	.	.	(8c/L	p
!LO:TX:t=P:problem=niewyraźne źródło	!	!	!	!	!	!	!
4r	.	4r	.	4r	.	8e/	.
.	.	.	.	.	.	8g/J)	.
!!linebreak:original
=9	=9	=9	=9	=9	=9	=9	=9
4r	.	4r	.	4r	.	(8b-/	.
!	!	!	!	!	!	!	!LO:HP:t=cre-scen-do:ext=ud:ext=ud
.	.	.	.	.	.	4f#X/)	<
!	!	!	!LO:DY:rj	!	!	!	!
[2C/	sf	(8c\L	p	8r	.	.	.
.	<	8B-\	.	[4.e/	sf	(8g\L	.
.	.	8A\	.	.	.	8a\	.
.	.	8G\J)	.	.	.	8b-\J	.
=10	=10	=10	=10	=10	=10	=10	=10
4C\]	.	(8B-/	.	2.e/_	.	8dd\	.
.	.	4A/)	.	.	.	4a\)	.
[2C/	.	.	.	.	.	.	.
.	.	(8G/L	<	.	.	(8b-\L	.
.	.	8A/	.	.	.	8cc#X\	[
.	[[	8B-/J	.	.	.	8dd\J	.
=11	=11	=11	=11	=11	=11	=11	=11
2.C/_	.	8c\L	.	4e/]	.	4gg\	f
.	.	8c#X\J	.	.	.	.	.
.	.	4d\	[	(2f/	.	4ff\	.
.	>	8A\L	.	.	.	(8ee\L)	.
.	.	8B-\J)	.	.	.	8dd\J	>
=12	=12	=12	=12	=12	=12	=12	=12
2.C/]	.	(8B-\L	>	4d/)	.	4ff\	.
.	.	8Bn\	.	.	.	.	.
.	.	8c\	.	2e/	.	8ee\L	.
.	.	8B-X\	.	.	.	8dd\	.
.	]	8A\	.	.	.	8cc\	.
.	.	8c\J)	]	.	.	8b-\J)	]
!!linebreak:original
=13	=13	=13	=13	=13	=13	=13	=13
!	!LO:DY:rj	!	!LO:DY:rj	!	!	!	!
2F\	p	2c\	p	[2.a/	p	(4aa\	p
.	.	.	.	.	.	4.gg\	.
[4E\	.	[4c#X\	.	.	.	.	.
.	.	.	.	.	.	8ee\)	.
=14	=14	=14	=14	=14	=14	=14	=14
4E\]	.	4c#\]	.	2a/]	.	(8ee\	.
.	.	.	.	.	.	4gg\)	.
4D\	.	(2d\	.	.	.	.	.
.	.	.	.	.	.	(8ff\L	.
(8B-\L	.	.	.	[4f/	.	8dd\	.
8G\J	.	.	.	.	.	8b-\J	.
=15	=15	=15	=15	=15	=15	=15	=15
8c\	.	4cn\	.	4f/]	.	4a/)	.
4C/)	.	.	.	.	.	.	.
.	.	.	.	.	.	(<8qcc/	.
.	.	4d\	.	(4f/	.	(4.b-\)	.
8CC/	.	.	.	.	.	.	.
4C/	.	4c\)	.	4e/)	.	.	.
.	.	.	.	.	.	8a/)	.
=16	=16	=16	=16	=16	=16	=16	=16
4F\	.	2A/	.	2c/	.	2f/	.
4FF/	.	.	.	.	.	.	.
4r	.	4r	.	4r	.	4r	.
!!pagebreak:original
=17||	=17||	=17||	=17||	=17||	=17||	=17||	=17||
*k[b-]	*	*k[b-]	*	*k[b-]	*	*k[b-]	*
*M3/4	*	*M3/4	*	*M3/4	*	*M3/4	*
!	!	!	!	!	!	!LO:TX:B:a:t=Andante	!
!	!	!	!	!	!	!LO:TX:B:a:t=Var. I.	!
4A\	p	8r	.	2.r	.	2.r	.
.	.	8f'\L	p	.	.	.	.
4.G\	.	8g'\	.	.	.	.	.
.	.	8a'\	.	.	.	.	.
.	.	8b-'\	.	.	.	.	.
8E\	.	8cc'\J	.	.	.	.	.
=18	=18	=18	=18	=18	=18	=18	=18
8E\	.	8g\L	.	8r	.	2.r	.
!	!	!	!	!	!LO:DY:rj	!	!
4G\	.	8f\	.	8b-'\L	p	.	.
.	.	8e\	.	8cc'\	.	.	.
8F\L	.	8d\	.	8dd'\	.	.	.
8E\	.	8c\	.	8ee'\	.	.	.
8D\J	.	8B-\J	.	8ff'\J	.	.	.
=19	=19	=19	=19	=19	=19	=19	=19
4C/	.	8A/L	.	8cc\L	.	8r	.
.	.	8G/	.	8b-\	.	8ee'\L	p
4.D\	.	8F/	.	8a\	.	8ff'\	.
.	.	8E/	.	8g\	.	8gg'\	.
.	.	8F/	.	8f\	.	8aa'\	.
8BB-/	.	8G/J	.	8e\J	.	8bb-\J	.
=20	=20	=20	=20	=20	=20	=20	=20
4AA/	.	8F/L	.	8f/L	.	8ccc\L	.
.	.	8E/	.	8g/	.	8cc\	.
4r	.	8D/	.	8f/	.	8b-\	.
.	.	8C/	.	8e/	.	8a\	.
4r	.	8D/	.	8f/	.	8b-\	.
.	.	8E/J	.	8c/J	.	8g\J	.
!!linebreak:original
=21	=21	=21	=21	=21	=21	=21	=21
4A\	.	8r	.	8c/	.	8f/	.
.	.	8f\L	.	8r	.	8r	.
4.G\	.	8g\	.	4r	.	4r	.
.	.	8a\	.	.	.	.	.
.	.	8b-\	.	4r	.	4r	.
8E\	.	8cc\J	.	.	.	.	.
=22	=22	=22	=22	=22	=22	=22	=22
8E\	.	8g\L	.	8r	.	2.r	.
4G\	.	8f\	.	8b-\L	.	.	.
.	.	8e\	.	8cc\	.	.	.
8F\L	.	8d\	.	8dd\	.	.	.
8E\	.	8c\	.	8ee\	.	.	.
8D\J	.	8B-\J	.	8ff\J	.	.	.
=23	=23	=23	=23	=23	=23	=23	=23
4E\	.	8c\L	.	8ee\L	.	8r	.
.	.	8Bn\	.	8dd\	.	8gg\L	.
4.F\	.	8A\	.	8cc\	.	8aa\	.
.	.	8G\	.	8dd\	.	8bbn\	.
.	.	8A\	.	8cc\	.	8ccc\	.
8D\	.	8f\J	.	8bn\J	.	8ddd\J	.
=24	=24	=24	=24	=24	=24	=24	=24
4C\	.	8e\L	.	8cc\L	.	8eee\L	.
.	.	8d\	.	8ff\	.	8fff\	.
8r	.	8e\	.	8ee\	.	8ggg\	.
8C\L	<	8f\	.	8dd\	.	8aaa\	.
8E\	.	8e\	.	8ee\	.	8ggg\	.
!	!	!	!	!LO:TX:a:t=b	!	!	!
8G\J	[[	8c\J	.	[8b-X\J	.	8eee\J	.
!!linebreak:original
=25	=25	=25	=25	=25	=25	=25	=25
4B-\	.	[2.d\	.	8b-\L]	.	8ddd\L	.
.	.	.	.	8cc\	.	8eee\J	.
8F#X\L	<	.	.	8dd\	.	4ddd\	.
8G\	.	.	.	8ee\	.	.	.
8A\	.	.	.	8ff#X\	.	8ccc\L	.
8B-\J	.	.	.	8gg\J	.	8bb-\J	.
=26	=26	=26	=26	=26	=26	=26	=26
4d\	[	8d\L]	.	8ff#X\L	.	4.aa\	.
.	.	8e\	.	8gg\J	.	.	.
8A\L	<	8f#X\	.	4ff#\	.	.	.
8B-\	.	8g\	.	.	.	8gg\L	.
8c\	.	8a\	.	8ee\L	.	8gg\	.
8d\J	.	[8b-\J	.	8dd\J	.	8ff#X\J	.
=27	=27	=27	=27	=27	=27	=27	=27
4g\	.	4.b-\]	.	8ffn\	.	8aa\L	.
.	.	.	.	4ee\	.	8gg\	.
4f\	.	.	.	.	.	8aa\	.
.	.	8a\L	.	8dd\L	.	8bb-\	.
8e\L	[	8g\	.	8cc\	.	8ccc\	.
8d\J	f	8f\J	.	8b-\J	.	8ddd\J	.
=28	=28	=28	=28	=28	=28	=28	=28
4f\	>	8a\	.	8a\L	.	8ccc\L	.
.	.	4g\	.	8b-\	.	8bb-\	.
8e\L	.	.	.	8a\	.	8ccc\	.
8d\	.	8f\L	.	8b-\	.	8ddd\	.
8c\	.	8e\	.	8cc\	.	8eee\	.
8B-\J	]	8d\J	.	8dd\J	.	[8fff\J	.
!!linebreak:original
=29	=29	=29	=29	=29	=29	=29	=29
4A\	p	8c\L	.	4ff\	.	8fff\L]	.
.	.	8d\	.	.	.	8ff\	.
4.G\	.	8e\	.	8ee\L	.	8gg\	.
.	.	8d\	.	8ff\	.	8aa\	.
.	.	8c\	.	8gg\	.	8bb-\	.
8E\	.	8e\J	.	8aa\J	.	[8ccc\J	.
=30	=30	=30	=30	=30	=30	=30	=30
8E\	.	8g\L	.	8cc\L	.	8ccc\L]	.
4G\	.	8f\	.	8b-\	.	8ddd\	.
.	.	8e\	.	8cc\	.	8eee\	.
8F\L	.	8d\	.	8dd\	.	8fff\	.
8D\	.	8e\	.	8b-\	.	8ggg\	.
8BB-\J	.	[8f\J	.	8dd\J	.	8aaa\J	.
=31	=31	=31	=31	=31	=31	=31	=31
*	*	*	*	*	*	*8va	*
!	!	!	!	!	!	!LO:TX:a:t=8va	!
4AA/	.	8f\L]	.	4cc\	.	8cccc\L	.
*	*	*	*	*	*	*X8va	*
!	!	!	!	!	!	!LO:TX:a:t=loco	!
.	.	8e\	.	.	.	8ccc\	.
4.BB-/	.	8d\	.	8dd\L	.	8bb-\	.
.	.	8c\	.	8ee\	.	8aa\	.
.	.	8d\	.	8gg\	.	8bb-\	.
8GG/	.	8e\J	.	8ee\J	.	8ccc\J	.
=32	=32	=32	=32	=32	=32	=32	=32
4FF/	.	8d\L	.	8ff\L	.	8fff\L	.
.	.	8c\J	.	8gg\J	.	8eee\J	.
4r	.	4A/	.	4ff\	.	4fff\	.
4r	.	4r	.	4r	.	4r	.
!!pagebreak:original
=33||	=33||	=33||	=33||	=33||	=33||	=33||	=33||
*	*	*	*	*	*	*k[b-]	*
*M3/4	*	*M3/4	*	*M3/4	*	*M3/4	*
!	!	!	!	!	!	!LO:TX:B:a:t=allegro	!
!	!	!	!	!	!	!LO:TX:B:a:t=Var. II.	!
*MM100	*	*MM100	*	*MM100	*	*MM100	*
!	!LO:DY:rj	!	!	!	!	!LO:TX:a:t=[quarter]=100	!
(8.AA\L	f	2.r	.	2.r	.	2.r	.
16D\Jk	.	.	.	.	.	.	.
4.C/	.	.	.	.	.	.	.
8BB-/)	.	.	.	.	.	.	.
=34	=34	=34	=34	=34	=34	=34	=34
(16AA/LL	.	2.r	.	2.r	.	2.r	.
16BB-/	.	.	.	.	.	.	.
16AA/	.	.	.	.	.	.	.
16GG/JJ	.	.	.	.	.	.	.
4FF/)	.	.	.	.	.	.	.
4GG'/	.	.	.	.	.	.	.
=35	=35	=35	=35	=35	=35	=35	=35
(8.FF/L	.	((8.A\L	f	2.r	.	2.r	.
16BB-/Jk	.	16d\Jk	.	.	.	.	.
[4AA/	.	4.c\	.	.	.	.	.
16AA/LL]	.	.	.	.	.	.	.
16BB-/	.	.	.	.	.	.	.
16AA/	.	8B-\)	.	.	.	.	.
16GG/JJ	.	.	.	.	.	.	.
=36	=36	=36	=36	=36	=36	=36	=36
8.FF/L	.	(16A/LL	.	2.r	.	2.r	.
.	.	16B-/	.	.	.	.	.
.	.	16A/	.	.	.	.	.
16EE/Jk	.	16G/JJ	.	.	.	.	.
4DD/	.	4F/)	.	.	.	.	.
4EE/)	.	4G'/)	.	.	.	.	.
!!linebreak:original
=37	=37	=37	=37	=37	=37	=37	=37
4FF/	.	8.F/L	.	((8.a\L	f	2.r	.
.	.	16B-/Jk	.	16dd\Jk	.	.	.
4r	.	[4A/	.	4.cc\	.	.	.
[4F\	.	16A/LL]	.	.	.	.	.
.	.	16G/	.	.	.	.	.
.	.	16A/	.	8b-\)	.	.	.
.	.	16B-/JJ	.	.	.	.	.
=38	=38	=38	=38	=38	=38	=38	=38
4F\]	.	8.c\L	.	(16a\LL	.	2.r	.
.	.	.	.	16b-\	.	.	.
.	.	.	.	16a\	.	.	.
.	.	16B-\Jk	.	16g\JJ	.	.	.
4r	.	4A/	.	4f/)	.	.	.
[4FF/	.	4B-/	.	4g'>/)	.	.	.
=39	=39	=39	=39	=39	=39	=39	=39
4FF/]	.	8.A/L	.	(8.f/L	.	(8.aa\L	f
.	.	16F/Jk	.	16a/Jk	.	16ccc\Jk	.
[>2GG/	.	4D/	.	[4g/	.	4.bbn\	.
.	.	[4C/	.	16g/LL]	.	.	.
.	.	.	.	16a/	.	.	.
.	.	.	.	16g/	.	8aa\	.
.	.	.	.	16f/JJ	.	.	.
=40	=40	=40	=40	=40	=40	=40	=40
4GG/]	.	4C/]	.	8.e/L	.	16gg\LL	.
.	.	.	.	.	.	16aa\	.
.	.	.	.	.	.	16gg\	.
.	.	.	.	16d/Jk	.	16ff\JJ	.
4CC/	.	4G/	.	8c/L	.	8ee\L	.
.	.	.	.	8e/J)	.	8cc\J)	.
4C/	.	4r	.	4r	.	4r	.
!!linebreak:original
=41	=41	=41	=41	=41	=41	=41	=41
(8.CC/L	ff	2.r	.	2.r	.	2.r	.
16C/Jk	.	.	.	.	.	.	.
4.BB-/	.	.	.	.	.	.	.
8GG/)	.	.	.	.	.	.	.
=42	=42	=42	=42	=42	=42	=42	=42
!	!	!	!LO:DY:rj	!	!	!	!
(16AA/LL	.	((8.C\L	ff	2.r	.	2.r	.
16BB-/	.	.	.	.	.	.	.
16AA/	.	.	.	.	.	.	.
16FF/JJ	.	16c\Jk	.	.	.	.	.
4DD/)	.	4.B-/	.	.	.	.	.
4EE/	.	.	.	.	.	.	.
.	.	8G/)	.	.	.	.	.
=43	=43	=43	=43	=43	=43	=43	=43
!	!	!	!	!	!LO:DY:rj	!	!
2.FF/	p	(16A/LL	.	((8.c\L	ff	2.r	.
.	.	16B-/	.	.	.	.	.
.	.	16A/	.	.	.	.	.
.	.	16F/JJ	.	16cc\Jk	.	.	.
.	.	4D/)	.	4.b-\	.	.	.
.	.	4E'/	.	.	.	.	.
.	.	.	.	8g/)	.	.	.
=44	=44	=44	=44	=44	=44	=44	=44
[2.F\	.	4F/	.	(16a\LL	.	(8.cc\L	ff
.	.	.	.	16b-\	.	.	.
.	.	.	.	16a\	.	.	.
.	.	.	.	16f\JJ	.	16ccc\Jk	.
.	.	4G/)	.	4d/)	.	4.bb-\	.
!	!	!	!LO:DY:rj	!	!	!	!
.	.	[4c\	p	4e/)	.	.	.
.	.	.	.	.	.	8gg\)	.
!!linebreak:original
=45	=45	=45	=45	=45	=45	=45	=45
16F\LL]	.	2.c\_	.	[4f/	.	(8.aa\L	.
(16E\	.	.	.	.	.	.	.
16F\	.	.	.	.	.	.	.
16G\JJ	.	.	.	.	.	16ddd\Jk	.
4.A\)	.	.	.	16f/LL]	.	4.ccc\	.
.	.	.	.	(<16e/	p	.	.
.	.	.	.	16f/	.	.	.
.	.	.	.	16g/JJ	.	.	.
.	.	.	.	8f\L)	.	.	.
8G\	.	.	.	8b-\J	.	8bb-\)	.
=46	=46	=46	=46	=46	=46	=46	=46
[4F\	.	16c\LL]	.	[2.cc\	.	(8.aa\L	.
.	.	(16d\	.	.	.	.	.
.	.	16c\	.	.	.	.	.
.	.	16B-\JJ	.	.	.	16gg\Jk	.
16F\LL]	.	4A/)	.	.	.	4ff\	.
(16E\	.	.	.	.	.	.	.
16F\	.	.	.	.	.	.	.
16G\JJ	.	.	.	.	.	.	.
[4F\)	.	4B-/	.	.	.	4gg\	.
=47	=47	=47	=47	=47	=47	=47	=47
2F\_	.	(8.A\L	.	4cc\_	.	16ff\LL	.
.	.	.	.	.	.	16ee\	.
.	.	.	.	.	.	16ff\	.
.	.	16d\Jk	.	.	.	16gg\JJ	.
.	.	4.c\	.	16cc\LL]	.	4.aa\	.
.	.	.	.	16dd\	.	.	.
.	.	.	.	16cc\	.	.	.
.	.	.	.	16bn\JJ	.	.	.
16F\LL]	.	.	.	[4cc\	.	.	.
(16G\	.	.	.	.	.	.	.
16F\	.	8B-/	.	.	.	8gg\	.
16E\JJ	.	.	.	.	.	.	.
=48	=48	=48	=48	=48	=48	=48	=48
[4F\)	.	16A/LL	.	2.cc\]	.	2.ff\)	.
.	.	16B-/	.	.	.	.	.
.	.	16A/	.	.	.	.	.
.	.	16G/JJ	.	.	.	.	.
16F\LL]	.	2A/)	.	.	.	.	.
(16E\	.	.	.	.	.	.	.
16F\	.	.	.	.	.	.	.
16G\JJ	.	.	.	.	.	.	.
4F\)	.	.	.	.	.	.	.
!!pagebreak:original
=49||	=49||	=49||	=49||	=49||	=49||	=49||	=49||
*	*	*	*	*	*	*k[b-]	*
*M3/4	*	*M3/4	*	*M3/4	*	*M3/4	*
!	!	!	!	!	!	!LO:TX:a:B:t=allegro brillante	!
!LO:TX:b:t=piz:rj	!	!LO:TX:b:t=piz:rj	!	!	!	!LO:TX:a:B:t=Var III	!
8r	p	8f\	p	(4a/	p	(16cc\LL	pp
.	.	.	.	.	.	16ff\)	.
8F\	.	8r	.	.	.	(16ff\	.
.	.	.	.	.	.	16ee\JJ)	.
8r	.	8g\	.	4.g/	.	(16ee\LL	.
.	.	.	.	.	.	16dd\)	.
8C/	.	8r	.	.	.	(16dd\	.
.	.	.	.	.	.	16ee\JJ)	.
8r	.	8G/	.	.	.	(16ee\LL	.
.	.	.	.	.	.	16dd\)	.
8CC/	.	8r	.	8e/)	.	(16dd\	.
.	.	.	.	.	.	16cc\JJ)	.
=50	=50	=50	=50	=50	=50	=50	=50
8r	.	8G/	.	(8e/	.	(16cc\LL	.
.	.	.	.	.	.	16dd\)	.
8E\	.	8r	.	4g/)	.	(16dd\	.
.	.	.	.	.	.	16cc\JJ)	.
8r	.	8B-/	.	.	.	(16cc\LL	.
.	.	.	.	.	.	16b-\)	.
8D\	.	8r	.	(8f/L	.	(16b-\	.
.	.	.	.	.	.	16cc\JJ)	.
8r	.	8G/	.	8e/	.	(16cc\LL	.
.	.	.	.	.	.	16b-\)	.
8BB-/	.	8r	.	8d/J	.	(16b-\	.
.	.	.	.	.	.	16a\JJ)	.
=51	=51	=51	=51	=51	=51	=51	=51
8AA'/L	.	8F/	.	4c/	.	(16a\LL	.
.	.	.	.	.	.	16b-\)	.
8GG'/	.	8r	.	.	.	(16b-\	.
.	.	.	.	.	.	16a\JJ)	.
8FF'/	.	8A/	.	4.d/)	.	(16a/LL	.
.	.	.	.	.	.	16g/)	.
8GG'/	.	8r	.	.	.	(16g/	.
.	.	.	.	.	.	16a/JJ)	.
8FF'/	.	8C/	.	.	.	(16a/LL	.
.	.	.	.	.	.	16g/)	.
8EE'/J	.	8r	.	(8B-/	.	(16g/	.
.	.	.	.	.	.	16f/JJ)	.
=52	=52	=52	=52	=52	=52	=52	=52
8FF'/L	.	8C/	.	4A/	.	(16f/LL	.
.	.	.	.	.	.	16e/)	.
8GG'/	.	8r	.	.	.	(16e/	.
.	.	.	.	.	.	16f/JJ)	.
8AA'/	.	8c\	.	4c/)	.	(16f/LL	.
.	.	.	.	.	.	16g/)	.
8BB-'/	.	8r	.	.	.	(16g/	.
.	.	.	.	.	.	16a/JJ)	.
8C'/	.	8F/	.	4r	.	(16a\LL	.
.	.	.	.	.	.	16b-\)	.
8D'/J	.	8r	.	.	.	(16b-\	.
.	.	.	.	.	.	16bn\JJ)	.
!!linebreak:original
=53	=53	=53	=53	=53	=53	=53	=53
8r	.	8f\	.	(4a/	.	(16cc\LL	.
.	.	.	.	.	.	16ff\)	.
8F\	.	8r	.	.	.	(16ff\	.
.	.	.	.	.	.	16ee\JJ)	.
8r	.	8g\	.	4.g/	.	(16ee\LL	.
.	.	.	.	.	.	16dd\)	.
8C/	.	8r	.	.	.	(16dd\	.
.	.	.	.	.	.	16ee\JJ)	.
8r	.	8G/	.	.	.	(16ee\LL	.
.	.	.	.	.	.	16dd\)	.
8CC/	.	8r	.	8e/)	.	(16dd\	.
.	.	.	.	.	.	16cc\JJ)	.
=54	=54	=54	=54	=54	=54	=54	=54
8r	.	8G/	.	(8e/	.	16cc\LL	.
.	.	.	.	.	.	16dd\	.
8C/	.	8r	.	4g/)	.	16dd\	.
.	.	.	.	.	.	16cc\JJ	.
8r	.	8F/	.	.	.	16cc\LL	.
.	.	.	.	.	.	16bn\	.
8D\	.	8r	.	(8f/L	.	16b\	.
.	.	.	.	.	.	16cc\JJ	.
8r	.	8A/	.	8e/	.	16cc\LL	.
.	.	.	.	.	.	16b\	.
8F\	.	8r	.	8d/J	.	16b\	.
.	.	.	.	.	.	16a\JJ	.
=55	=55	=55	=55	=55	=55	=55	=55
8r	.	8c\	.	4e/	.	16g\LL	.
.	.	.	.	.	.	16cc\	.
8G\	.	8r	.	.	.	16cc\	.
.	.	.	.	.	.	16bn\JJ	.
8r	.	8d\	.	4.f/)	.	16b\LL	.
.	.	.	.	.	.	16a\	.
8GG/	.	8r	.	.	.	16a\	.
.	.	.	.	.	.	16b\JJ	.
8r	.	8B-\	.	.	.	16a\LL	.
.	.	.	.	.	.	16g\	.
8G\	.	8r	.	(8d/	.	16a\	.
.	.	.	.	.	.	16b\JJ	.
=56	=56	=56	=56	=56	=56	=56	=56
8r	.	8c\	.	4c/)	.	16cc\LL	.
.	.	.	.	.	.	16dd\	.
8E\	.	8r	.	.	.	16dd\	.
.	.	.	.	.	.	16ee\JJ	.
8r	.	8F/	.	8r	.	16ee\LL	.
.	.	.	.	.	.	16ff\	.
8C/	.	8r	.	(8c/L	.	16ff\	.
.	.	.	.	.	.	16ee\JJ	.
!	!	!	!	!	!LO:HP:t=cres-scen-do:ext=ud:ext=ud	!	!
8r	.	8c\	.	8e/	<	16ee\LL	.
.	.	.	.	.	.	16dd\	.
8CC/	.	8r	.	8g/J)	.	16dd\	.
.	.	.	.	.	.	16cc\JJ	.
!!linebreak:original
=57	=57	=57	=57	=57	=57	=57	=57
8r	.	8g\	.	(4b-\	.	(16cc\LL	.
.	.	.	.	.	.	16dd\)	.
8CC/	.	8rA	.	.	.	(16dd\	.
.	.	.	.	.	.	16cc\JJ)	.
8r	.	8G/	.	8f#X\L)	.	(16aa\LL	.
.	.	.	.	.	.	16bb-\)	.
8C\	.	8r	.	(8g\	.	(16bb-\	.
.	.	.	.	.	.	16aa\JJ)	.
8r	.	8g\	.	8a\	.	(16ff#X\LL	.
.	.	.	.	.	.	16gg\)	.
8c\	.	8r	.	8b-\J	.	(16gg\	.
.	.	.	.	.	.	16ff#\JJ)	.
=58	=58	=58	=58	=58	=58	=58	=58
*	*	*rep	*	*	*	*	*
8r	.	8g\	.	4dd\	.	16ff#X\LL	.
.	.	.	.	.	.	16gg\	.
8c\	.	8rA	.	.	.	16gg\	.
.	.	.	.	.	.	16ff#\JJ	.
8r	.	8G/	.	8a\L)	.	16ccc\LL	.
.	.	.	.	.	.	16ddd\	.
8C/	.	8r	.	(8b-\	[	16ddd\	.
.	.	.	.	.	.	16ccc\JJ	.
8r	.	8g\	.	8cc#X\	.	16aa\LL	.
.	.	.	.	.	.	16bb-\	.
8CC/	.	8r	.	8dd\J	f	16bb-\	.
.	.	.	.	.	.	16aa\JJ	.
*	*	*Xrep	*	*	*	*	*
=59	=59	=59	=59	=59	=59	=59	=59
8r	.	8b-\	.	4gg\	.	16gg\LL	.
.	.	.	.	.	.	16aa\	.
8EE/	.	8r	.	.	.	16aa\	.
.	.	.	.	.	.	16gg\JJ	.
8r	.	8a\	.	4ff\)	.	16aa\LL	.
.	.	.	.	.	.	16bb-\	.
8FF/	.	8r	.	.	.	16bb-\	.
.	.	.	.	.	.	16aa\JJ	.
8r	.	8g\	.	(8ee\L	.	16bb-\LL	.
.	.	.	.	.	.	16ccc\	.
8GG/	.	8r	.	8dd\J	>	16ccc\	.
.	.	.	.	.	.	16bb-\JJ	.
=60	=60	=60	=60	=60	=60	=60	=60
8r	.	8a\	.	4ff\	.	16aa\LL	.
.	.	.	.	.	.	16bb-\	.
8FF/	.	8r	.	.	.	16bb-\	.
.	.	.	.	.	.	16aa\JJ	.
8r	.	8g\	.	4ee\	.	16bb-\LL	.
.	.	.	.	.	.	16ccc\	.
8GG/	.	8r	.	.	.	16ccc\	.
.	.	.	.	.	.	16bb-\JJ	.
8r	.	8f\	.	8dd\L	.	16ccc\LL	.
.	.	.	.	.	.	16ddd\	.
8AA/	.	8r	.	8cc\J)	]	16ddd\	.
.	.	.	.	.	.	16ccc\JJ	.
!!linebreak:original
=61	=61	=61	=61	=61	=61	=61	=61
8r	.	8f\	.	(4aa\	.	(16ccc\LL	.
.	.	.	.	.	.	16fff\)	.
8AA/	.	8r	.	.	.	(16fff\	.
.	.	.	.	.	.	16eee\JJ)	.
8r	.	8e\	.	4.gg\	.	(16eee\LL	.
.	.	.	.	.	.	16ddd\)	.
8BB-/	.	8r	.	.	.	(16ddd\	.
.	.	.	.	.	.	16eee\JJ)	.
8r	.	8c\	.	.	.	16eee\LL	.
.	.	.	.	.	.	16ddd\	.
8C/	.	8r	.	8ee\)	.	16ddd\	.
.	.	.	.	.	.	16ccc\JJ	.
=62	=62	=62	=62	=62	=62	=62	=62
8r	.	8c\	.	(8ee\	.	16ccc\LL	.
.	.	.	.	.	.	16ddd\	.
8BB-/	.	8r	.	4gg\)	.	16ddd\	.
.	.	.	.	.	.	16ccc\JJ	.
8r	.	8e\	.	.	.	16bb-\LL	.
.	.	.	.	.	.	16aa\	.
8C/	.	8r	.	(8ff\L	.	16aa\	.
.	.	.	.	.	.	16bb-\JJ	.
8r	.	8f\	.	8dd\	.	16bb-\LL	.
.	.	.	.	.	.	16aa\	.
8D\	.	8r	.	8b-\J	.	16aa\	.
.	.	.	.	.	.	16gg\JJ	.
=63	=63	=63	=63	=63	=63	=63	=63
8r	.	8f\	.	4a/)	.	16ff\LL	.
.	.	.	.	.	.	16gg\	.
8C/	.	8r	.	.	.	16gg\	.
.	.	.	.	.	.	16ff\JJ	.
8r	.	8c\	.	(4.b-\	.	16gg\LL	.
.	.	.	.	.	.	16aa\	.
8BB-/	.	8r	.	.	.	16aa\	.
.	.	.	.	.	.	16gg\JJ	.
8r	.	8e\	.	.	.	16gg\LL	.
.	.	.	.	.	.	16ff\	.
8C/	.	8r	.	8g/)	.	16ff\	.
.	.	.	.	.	.	16ee\JJ	.
=64	=64	=64	=64	=64	=64	=64	=64
8r	.	8A/	.	4f/	.	16ff\LL	.
.	.	.	.	.	.	16gg\	.
8F\	.	8r	.	.	.	16gg\	.
.	.	.	.	.	.	16ff\JJ	.
8r	.	8a\	.	4r	.	4ff\	.
8FF/	.	8r	.	.	.	.	.
4r	.	4r	.	4r	.	4r	.
!!pagebreak:original
=65||	=65||	=65||	=65||	=65||	=65||	=65||	=65||
*k[b-e-a-d-]	*	*k[b-e-a-d-]	*	*k[b-e-a-d-]	*	*k[b-e-a-d-]	*
*M3/4	*	*M3/4	*	*M3/4	*	*M3/4	*
*MM60	*	*MM60	*	*MM60	*	*MM60	*
!	!	!	!	!	!	!LO:TX:a:B:t=adagio molto.	!
!	!	!	!	!	!	!LO:TX:a:B:t=Var. IV.	!
!	!	!	!	!	!	!LO:TX:a:t=[quarter]=60	!
(4F\	p	8r	.	2.r	.	(4a-/	p
.	.	8c'\L	pp	.	.	.	.
4.En\	.	(8d-^\	.	.	.	4.g/	.
.	.	8c\J)	.	.	.	.	.
.	.	4c\	.	.	.	.	.
8C/)	.	.	.	.	.	8en/)	.
=66	=66	=66	=66	=66	=66	=66	=66
(8C/	.	8r	.	2.r	.	(8en/	.
4BB-/)	.	8c'\L	.	.	.	4g/)	.
.	.	(8d-^\	.	.	.	.	.
(8AA-/L	.	8c\	.	.	.	(8f/L	.
8GG/	.	8B-\	.	.	.	8e-X/	.
8FF/J	.	8A-\J)	.	.	.	8d-/J	.
=67	=67	=67	=67	=67	=67	=67	=67
4EEn/	.	8G/L	.	2.r	.	4c/	.
.	.	8G'/	.	.	.	.	.
8FF/L)	.	(8A-/	.	.	.	4.d-/	.
8BB-/	.	8G/	.	.	.	.	.
(8BB-/	.	8G/	.	.	.	.	.
8AA-/J)	.	8F/J)	.	.	.	8Bn/)	.
=68	=68	=68	=68	=68	=68	=68	=68
8C\L	.	4En/	.	2.r	.	4c/	.
8C\	.	.	.	.	.	.	.
(8D-^\	.	4r	.	.	.	4r	.
8C\)	.	.	.	.	.	.	.
(8C\	.	4r	.	.	.	4r	.
8BB-\J)	.	.	.	.	.	.	.
!!linebreak:original
=69	=69	=69	=69	=69	=69	=69	=69
(4AA-/	.	(4f\	p	8r	p	2.r	.
.	.	.	.	8c'/L	.	.	.
4.GG/	.	4.en\	.	(8d-^/	.	.	.
.	.	.	.	8c/J)	.	.	.
.	.	.	.	4c/	.	.	.
8EEn/)	.	8g\)	.	.	.	.	.
=70	=70	=70	=70	=70	=70	=70	=70
(8EEn/	.	(8c\	.	8r	.	2.r	.
4GG/)	.	4B-\)	.	8c'/L	.	.	.
!	!	!	!	!	!LO:HP:a	!	!
.	.	.	.	(8d-^/	<	.	.
(8FF/L	<	8A-/L	<	8c/)	.	.	.
8EEn/	.	8G/	.	8c'/	.	.	.
8DD-/J	.	8F/J	.	(8d-/J	.	.	.
=71	=71	=71	=71	=71	=71	=71	=71
4CC/	.	8E-/	.	4e-/	.	2.r	.
.	.	4A-^/	.	.	.	.	.
4.DD-/	.	.	.	4.f/	.	.	.
.	.	8A-'/L	.	.	.	.	.
.	.	(8A-/	.	.	.	.	.
8EE-/	.	8G/J	.	8e-/)	[	.	.
=72	=72	=72	=72	=72	=72	=72	=72
8AA-/L)	[	4A-/)	[	4c/	.	2.r	.
8AA-'/	p	.	.	.	.	.	.
(8BB--^/	.	4r	.	4r	.	.	.
8AA-/J)	.	.	.	.	.	.	.
!	!	!	!LO:DY:rj	!	!	!	!
[4AA-/	.	(8C/L	p	4r	.	.	.
.	.	8E-/J)	.	.	.	.	.
=73	=73	=73	=73	=73	=73	=73	=73
!!linebreak:original
!	!	!	!LO:DY:a	!	!	!	!
8AA-/L]	.	(8.G-X/L	.	2.r	.	2.r	.
8AA-'/	.	.	<	.	.	.	.
.	.	16F/K	.	.	.	.	.
(8BB--/	<	8D-/	.	.	.	.	.
8AA-/J)	.	8E-/	.	.	.	.	.
[4AA-/	.	8F/	[[	.	.	.	.
.	.	8G-/J)	.	.	.	.	.
=74	=74	=74	=74	=74	=74	=74	=74
!	!	!	!	!	!LO:DY:b:rj	!	!
8AA-/L]	.	(8.B-/L	.	(8.g-X/L	p	2.r	.
8AA-/	.	.	.	.	.	.	.
!	!	!	!	!	!LO:HP:a	!	!
.	.	16A-/K	.	16f/K	<	.	.
(8BB--/	.	8F/	.	8d-/	.	.	.
!	!	!LO:ACC:color=blue	!	!	!	!	!
8AA-/J)	.	8G-X/	.	8e-/	.	.	.
[4AA-/	.	8A-/	.	8f/	.	.	.
.	.	8B-/J)	.	8g-/J)	[	.	.
=75	=75	=75	=75	=75	=75	=75	=75
8AA-/L]	.	(4e-\	.	(8.b-\L	.	(8.gg-X\L	p
8AA-'/	.	.	.	.	.	.	<
.	.	.	.	16a-\K	.	16ff\K	.
(8BB--/	.	4d-\	.	8f\	.	8dd-\	.
8AA-/J)	[	.	.	8g-X\	.	8ee-\	.
4AA-/	.	8c\L	.	8a-\	.	8ff\	.
.	.	8B-\J)	.	8b-\J)	.	8gg-\J	.
=76	=76	=76	=76	=76	=76	=76	=76
8r	p	(4d-\	.	(8a-\L	.	4ff\	[
8D-'\L	.	.	.	8b--\	.	.	.
8E-'\J	.	4c\	.	8a-\	.	4ee-\	>
!LO:TX:t=P:problem=nieczytelny zapis	!	!	!	!	!	!	!
4ryy	.	.	.	8gn\	.	.	.
.	.	8B-\L	.	8f#X\	.	8dd-\L	.
8E-\	.	8d-\J)	.	8g\J)	.	8cc\J)	]]
=77	=77	=77	=77	=77	=77	=77	=77
!!linebreak:original
4F\	.	4c\	.	8r	.	(>4a-/	.
.	.	.	.	8c/	.	.	.
4.En\	.	4r	.	(8d-/L	.	4.g/	.
.	.	.	.	8c/J)	.	.	.
.	.	4r	.	[4c/	.	.	.
8C/	.	.	.	.	.	8en/)	.
=78	=78	=78	=78	=78	=78	=78	=78
8C'>/	.	2.r	.	8c/L]	.	(8en/	.
4BB-/	.	.	.	8c'/	.	4g/)	.
.	.	.	.	(8d-/	.	.	.
8AA-/L	.	.	.	8c/	.	(8f/L	.
8GG/	.	.	.	8B-/	.	8e-/	.
8FF/J	.	.	.	8A-/J	.	8d-/J	.
=79	=79	=79	=79	=79	=79	=79	=79
4EEn/	.	8r	pp	8G/)	.	4c/)	.
.	.	8G'/L	.	8r	.	.	.
8FF/L	.	(8A-/	.	4r	.	(16c/LL	.
.	.	.	.	.	.	16e-/JJ)	.
!	!	!	!	!	!	!LO:N:vis=4.	!
8EE/J	.	8G/J)	.	.	.	(4d-^/	.
8r	.	(4G/	.	(4B-/	.	.	.
8EE/	.	.	.	.	.	8c/)	.
=80	=80	=80	=80	=80	=80	=80	=80
4FF/	.	8A-/L)	.	4A-/)	.	4c/	.
.	.	8C'/	.	.	.	.	.
.	.	((16qqC/	.	.	.	.	.
.	.	16qqE-/	.	.	.	.	.
4r	.	8.D-^/)	.	4r	.	4r	.
.	.	16C/Jk)	.	.	.	.	.
4r	.	4C/	.	4r	.	4r	.
=81||	=81||	=81||	=81||	=81||	=81||	=81||	=81||
!!pagebreak:original
*k[b-]	*	*k[b-]	*	*k[b-]	*	*k[b-]	*
*M2/4	*	*M2/4	*	*M2/4	*	*M2/4	*
!	!	!	!	!	!	!LO:TX:a:B:t=allegro giocoso	!
!	!	!	!	!	!	!LO:TX:B:a:t=Var. V.	!
8r	.	2r	.	2r	.	2r	.
(<8C/	f	.	.	.	.	.	.
16BB-/LL	.	.	.	.	.	.	.
16AA/	.	.	.	.	.	.	.
16GG/	.	.	.	.	.	.	.
16FF/JJ	.	.	.	.	.	.	.
=82	=82	=82	=82	=82	=82	=82	=82
16EE/LL	.	2r	.	2r	.	2r	.
16FF/	.	.	.	.	.	.	.
16GG/	.	.	.	.	.	.	.
16AA/JJ	.	.	.	.	.	.	.
16BB-\LL	.	.	.	.	.	.	.
16C\	.	.	.	.	.	.	.
16D\	.	.	.	.	.	.	.
16E\JJ)	.	.	.	.	.	.	.
=83	=83	=83	=83	=83	=83	=83	=83
(16F\LL	.	8r	.	2r	.	2r	.
16G\J	.	.	.	.	.	.	.
8A\J	.	8c\	f	.	.	.	.
16G\LL	.	(<16B-/LL	.	.	.	.	.
16F\)	.	16A/	.	.	.	.	.
16E\	.	16G/	.	.	.	.	.
16D\JJ	.	16F/JJ	.	.	.	.	.
=84	=84	=84	=84	=84	=84	=84	=84
(16C\LL	.	16E/LL	.	2r	.	2r	.
16D\J	.	16F/	.	.	.	.	.
8E\J)	.	16G/	.	.	.	.	.
.	.	16A/JJ	.	.	.	.	.
8D\L	.	16B-\LL	.	.	.	.	.
.	.	16c\	.	.	.	.	.
8BB-\J	.	16d\	.	.	.	.	.
.	.	16e\JJ)	.	.	.	.	.
=85	=85	=85	=85	=85	=85	=85	=85
!!linebreak:original
(16AA\LL	.	(16f\LL	.	8r	.	2r	.
16BB-\	.	16g\J	.	.	.	.	.
!	!	!	!	!	!LO:DY:rj	!	!
16C\	.	8a\J	.	(8cc'\	f	.	.
16D\JJ	.	.	.	.	.	.	.
16E\LL	.	16g\LL	.	16b-\LL	.	.	.
16F\	.	16f\	.	16a\	.	.	.
16B-\	.	16e\	.	16g\	.	.	.
16A\JJ	.	16f\JJ)	.	16f\JJ	.	.	.
=86	=86	=86	=86	=86	=86	=86	=86
8c\L)	.	((16c\LL	.	16e\LL	.	2r	.
.	.	16d\	.	16f\	.	.	.
8C\J	.	16e\	.	16g\	.	.	.
.	.	16f\JJ)	.	16a\JJ	.	.	.
8c\	.	16g\LL	.	16b-\LL	.	.	.
.	.	16a\	.	16cc\	.	.	.
8r	.	16b-\	.	16dd\	.	.	.
.	.	16a\JJ	.	16ee\JJ	.	.	.
=87	=87	=87	=87	=87	=87	=87	=87
8r	.	(16A\LL)	.	(16ff\LL)	.	8r	.
.	.	16B-\	.	16gg\J	.	.	.
(8F\	.	16c\	.	8aa'\J	.	(8ccc\	f
.	.	16d\JJ	.	.	.	.	.
16G\LL	.	16e\LL	.	16gg'\LL	.	16bb-\LL	.
16A\J	.	16f\J	.	16ff'\	.	16aa\	.
8Bn\J	.	[8g\J	.	16ee'\	.	16gg\	.
.	.	.	.	16dd\JJ)	.	16ff\JJ	.
=88	=88	=88	=88	=88	=88	=88	=88
8c\L)	.	16g\LL]	.	(16cc\LL	.	16ee\LL	.
.	.	16f\J	.	16dd\J	.	16ff\	.
8c\J	.	8e\J)	.	8ee\J)	.	16gg\	.
.	.	.	.	.	.	16aa\JJ	.
4G\	.	8f'\L	.	8dd'\L	.	16bbn\LL	.
.	.	.	.	.	.	16ccc\	.
.	.	8d'\J	.	8bn'\J	.	16ddd\	.
.	.	.	.	.	.	16ccc\JJ)	.
=89	=89	=89	=89	=89	=89	=89	=89
!!linebreak:original
8C'/L	.	(16e\LL	.	(16cc\LL	.	8r	.
.	.	16f\	.	16dd\	.	.	.
8C'/J	.	16e\	.	16cc\	.	(8ccc\	mf
.	.	16d\JJ	.	16b-\JJ	.	.	.
8c\	.	8e\)	.	8g/)	.	16bb-X\LL	.
.	.	.	.	.	.	16aa\	.
8r	.	8r	.	8r	.	16gg\	.
.	.	.	.	.	.	16ff\JJ	.
=90	=90	=90	=90	=90	=90	=90	=90
(16E\LL	mf	8c'\L	mf	8r	.	16gg\LL	.
16F\	.	.	.	.	.	16aa\	.
16E\	.	8c'\J	.	(8cc\	mf	16gg\	.
16C\JJ	.	.	.	.	.	16ee\JJ	.
8E\)	.	8G/	.	16b-\LL	.	8cc\)	.
.	.	.	.	16a\	.	.	.
8r	.	8r	.	16g\	.	8r	.
.	.	.	.	16f\JJ	.	.	.
=91	=91	=91	=91	=91	=91	=91	=91
(16E\LL	p	8r	.	8g/L)	.	(16cc\LL	p
16F\	.	.	.	.	.	16dd\	.
!	!	!	!LO:DY:rj	!	!	!	!
16E\	.	(<8c\	p	8g'/J	.	16cc\	.
16D\JJ	.	.	.	.	.	16b-\JJ	.
8E\)	.	16B-/LL	.	[4c/	.	8g/)	.
.	.	16A/	.	.	.	.	.
8r	.	16G/	.	.	.	8r	.
.	.	16F/JJ	.	.	.	.	.
=92	=92	=92	=92	=92	=92	=92	=92
8r	.	16G/LL	.	8c/L]	.	(16ee\LL	pp
.	.	16A/	.	.	.	16ff\	.
(8C/	.	16G/	.	8c'/J	.	16ee\	.
.	.	16F/JJ	.	.	.	16dd\JJ	.
16BB-/LL	.	8G/)	.	8c/	.	8ee\	.
16AA/	.	.	.	.	.	.	.
16GG/	.	8r	.	8r	.	8r)	.
16AA/JJ)	.	.	.	.	.	.	.
=93	=93	=93	=93	=93	=93	=93	=93
!!linebreak:original
8FF/	f	(16C/LL	f	(<16A/LL	f	8r	.
.	.	16D/	.	16B-/	.	.	.
8r	.	16E/	.	16c/	.	(8ccc\	f
.	.	16F/JJ	.	16d/JJ	.	.	.
[4F\	.	16G/LL	.	16e/LL	.	16bb-\LL	.
.	.	16A/	.	16f/	.	16aa\	.
.	.	16B-/	.	16g/	.	16gg\	.
.	.	16c/JJ)	.	16a/JJ	.	16ff\JJ	.
=94	=94	=94	=94	=94	=94	=94	=94
8F\L]	.	(16c\LL	.	(8b-\L)	.	16ee\LL	.
.	.	16d\	.	.	.	16ff\	.
[8FF\J	.	16e\	.	(16b-\L	.	16gg\	.
.	.	16f\JJ	.	16a\JJ))	.	16aa\JJ	.
16FF/LL]	.	8g\L)	.	(16g\LL	.	16bb-\LL	.
16EE/	.	.	.	16a\	.	16ccc\	.
16DD/	.	8G\J	.	16b-\	.	16ddd\	.
16CC/JJ	.	.	.	16cc\JJ	.	16eee\JJ	.
=95	=95	=95	=95	=95	=95	=95	=95
8C\	.	(16A\LL	.	16cc\LL	.	16fff\)	.
.	.	16B-\	.	16dd\	.	16r	.
8r	.	16c\	.	16ee\	.	(4ccc\	.
.	.	16d\JJ	.	16ff\JJ	.	.	.
[4c\	.	16e\LL	.	16gg\LL	.	.	.
.	.	16f\	.	16aa\	.	.	.
.	.	16g\	.	16bb-\	.	8cc\)	.
.	.	16f\JJ	.	16aa\JJ)	.	.	.
=96	=96	=96	=96	=96	=96	=96	=96
4c\]	.	8cc\L)	.	(16a\LL	.	(16ff\LL	.
.	.	.	.	16b-\	.	16gg\	.
.	.	8c\J	.	16a\	.	16ff\	.
.	.	.	.	16g\JJ	.	16ee\JJ	.
8F\	.	8c\	.	8a/)	.	8ff\)	.
8r	.	8r	.	8r	.	8r	.
=97||	=97||	=97||	=97||	=97||	=97||	=97||	=97||
!!pagebreak:original
*k[b-]	*	*k[b-]	*	*k[b-]	*	*k[b-]	*
*M3/4	*	*M3/4	*	*M3/4	*	*M3/4	*
!	!	!	!	!	!	!LO:TX:a:B:t=andante	!
!	!	!	!	!	!	!LO:TX:a:B:t=Var VI.	!
8r	.	2.r	.	2.r	.	2.r	.
(8A\	p	.	.	.	.	.	.
4.G\	.	.	.	.	.	.	.
8E\	.	.	.	.	.	.	.
=98	=98	=98	=98	=98	=98	=98	=98
8E\	.	2.r	.	2.r	.	2.r	.
4G\	.	.	.	.	.	.	.
8F\L	.	.	.	.	.	.	.
8E\	.	.	.	.	.	.	.
8D\J)	.	.	.	.	.	.	.
=99	=99	=99	=99	=99	=99	=99	=99
(4C/	.	8r	.	4r	.	2.r	.
.	.	(8a\	p	.	.	.	.
4.BB-/	.	4.g\	.	8r	.	.	.
!	!	!	!	!	!LO:DY:rj	!	!
.	.	.	.	8c/	pp	.	.
.	.	.	.	(8qe/	.	.	.
.	.	.	.	(8.d/L)	.	.	.
8C/	.	8e\	.	.	.	.	.
.	.	.	.	16c/Jk)	.	.	.
=100	=100	=100	=100	=100	=100	=100	=100
8C/L	.	8e\	.	4c/	.	2.r	.
8BB-/J	.	4g\	.	.	.	.	.
4AA/)	.	.	.	4c/	.	.	.
.	.	8f\L	.	.	.	.	.
4r	.	8e\	.	4r	.	.	.
.	.	8d\J)	.	.	.	.	.
=101	=101	=101	=101	=101	=101	=101	=101
!!linebreak:original
8r	.	(4c\	.	2.r	.	4r	.
(8A\	mf	.	.	.	.	.	.
4.G\	.	4.B-\	.	.	.	8r	.
.	.	.	.	.	.	8cc\	pp
.	.	.	.	.	.	8qee/	.
.	.	.	.	.	.	(8.dd\L	.
8E\	.	8c\	.	.	.	.	.
.	.	.	.	.	.	16cc\Jk)	.
=102	=102	=102	=102	=102	=102	=102	=102
8E\	.	8c\L	.	2.r	.	4cc\	.
4G\	.	8B-\J	.	.	.	.	.
.	.	4A/)	.	.	.	4c/	.
8F\L	.	.	.	.	.	.	.
8E\	.	4r	.	.	.	4r	.
8D\J	.	.	.	.	.	.	.
=103	=103	=103	=103	=103	=103	=103	=103
4C/)	.	8r	.	4r	.	2.r	.
.	.	(8a\	mf	.	.	.	.
(4.BBn/	.	4.g\	.	8r	.	.	.
!	!	!	!	!	!LO:DY:rj	!	!
.	.	.	.	8G/	p	.	.
.	.	.	.	8qBn/	.	.	.
.	.	.	.	(8.A/L	.	.	.
8C/)	.	8e\	.	.	.	.	.
.	.	.	.	16G/Jk)	.	.	.
=104	=104	=104	=104	=104	=104	=104	=104
4C/	.	8e\	.	(4G/	.	2.r	.
.	.	4g\	.	.	.	.	.
4r	.	.	.	8c/L	.	.	.
.	.	8f\L	.	8A/J	.	.	.
4r	.	8e\	.	4Bn/)	.	.	.
.	.	8d\J)	.	.	.	.	.
=105	=105	=105	=105	=105	=105	=105	=105
!!linebreak:original
8r	.	4c\	.	8c/	.	2.r	.
!	!LO:HP:t=cre-scen-do:ext:ud:ext:ud	!	!	!	!	!	!
(8E\	<	.	.	8r	.	.	.
4.G\	.	(4.Bn\	.	4r	.	.	.
.	.	.	.	4r	.	.	.
8F\	.	8c\)	.	.	.	.	.
=106	=106	=106	=106	=106	=106	=106	=106
8E\L	.	4c\	.	4r	.	2.r	.
8D\J	.	.	.	.	.	.	.
4C\)	.	4r	.	8r	.	.	.
.	.	.	.	(8c/	.	.	.
.	.	.	.	8qe/	.	.	.
4r	.	4r	.	8.d/L	.	.	.
.	.	.	.	16c/Jk)	.	.	.
=107	=107	=107	=107	=107	=107	=107	=107
(<4C/	.	8r	.	4c/	.	2.r	.
!	!	!	!LO:HP:t=cre-scen-do.:ext=ud:ext=ud	!	!	!	!
.	.	(8E/	<	.	.	.	.
4.E\	.	4.G/	.	8r	.	.	.
.	.	.	.	(8d/L	.	.	.
.	.	.	.	8c/	.	.	.
8D\	.	8F/	.	8B-/J	.	.	.
=108	=108	=108	=108	=108	=108	=108	=108
8C/L	.	8E/L	.	8A/L	.	4r	.
8BB-/J	[	8D/J	.	8G/J	.	.	.
4AA/)	.	4C/)	.	8c/)	.	8r	.
.	.	.	.	8r	.	8cc\	p
.	.	.	.	.	.	8qee/	.
4r	.	4r	.	4r	.	(8.dd\L	.
.	.	.	.	.	.	16cc\Jk)	.
=109	=109	=109	=109	=109	=109	=109	=109
!!linebreak:original
8r	.	(<4c\	.	4r	.	2cc\	.
(8A\	p	.	.	.	.	.	.
4.G\	.	4.e\	.	[2B-/	sf	.	.
.	.	.	.	.	.	[4ccc\	sf
8F\	.	8d\	.	.	.	.	<
=110	=110	=110	=110	=110	=110	=110	=110
8E\	.	8c\L	.	(8B-/]	.	4ccc\_	.
4G\	>	8B-\J	[	4c/	.	.	.
.	.	4A/)	.	.	.	8ccc\L]	[
8F\L	.	.	.	8A/	.	(8f\	p
8D\	.	4r	.	8f/L)	.	8b-\	<
8BB-\J	.	.	.	8f'/J	.	8dd\J)	.
=111	=111	=111	=111	=111	=111	=111	=111
4AA/)	]	8r	.	4c/	.	(2ff\	[
.	.	(8a\	p	.	.	.	.
2BB-/	.	4.g\	.	[>2B-/	p	.	.
.	.	.	.	.	.	8ee\L	>
.	.	8f\	.	.	.	8dd\J)	.
=112	=112	=112	=112	=112	=112	=112	=112
(4C/	.	(4e\)	.	(4B-/]	.	2cc\	]]
4FF/)	.	4f\)	.	4A/)	.	.	.
4r	.	4r	.	4r	.	4r	.
=113||	=113||	=113||	=113||	=113||	=113||	=113||	=113||
!!pagebreak:original
*k[b-]	*	*k[b-]	*	*k[b-]	*	*k[b-]	*
*M2/4	*	*M2/4	*	*M2/4	*	*M2/4	*
*MM88	*	*MM88	*	*MM88	*	*MM88	*
!	!	!	!	!	!	!LO:TX:B:a:t=allegretto\n con dolcezza	!
!LO:TX:b:t=piz	!	!	!	!	!	!LO:TX:B:a:t=Var. VII	!
!	!	!	!	!	!	!LO:TX:a:t=[quarter]=88	!
8F\	f	8f\	f	8cc'\	f	8aa\	f
8r	.	4f\	.	(4cc\	.	(4aa\	.
!LO:TX:b:t=arco	!LO:DY:a	!	!	!	!	!	!
[4c\	sf	.	.	.	.	.	.
.	.	16cc\LL	.	16b-\LL	.	16gg\LL	.
.	.	16cc\JJ	.	16g\JJ)	.	16ee\JJ)	.
=114	=114	=114	=114	=114	=114	=114	=114
4c\]	.	16cc\LL	.	(16g\LL	.	(16ee\LL	.
.	.	16cc\J	.	16b-\J)	.	16gg\J)	.
.	.	[8cc\J	.	[8b-\J	.	[8gg\J	.
(4F\	.	16cc\LL]	.	(16b-\LL]	.	16gg\LL]	.
.	.	16cc\	.	16a\	.	(16ff\	.
.	.	16b-\	.	16g\	.	16ee\	.
.	.	16b-\JJ	.	16f\JJ	.	16dd\JJ	.
=115	=115	=115	=115	=115	=115	=115	=115
8G\)	.	8b-\L	.	8e/L)	.	8cc\L	.
8r	.	8b-\	.	(8e/	.	8cc#X\	.
!LO:TX:b:t=piz	!	!	!	!	!	!	!
8C/	.	8.b-\	.	8.f/)	.	8.dd\)	.
8r	.	.	.	.	.	.	.
.	.	16e\Jk	.	16c/Jk	.	(16b-\Jk	.
=116	=116	=116	=116	=116	=116	=116	=116
8F\	.	(8e\L	.	8c/L	.	8b-\L	.
8r	.	8f\J)	.	8c/J	.	8a\J)	.
8FF/	.	8r	.	8r	.	8r	.
8r	.	8f\	.	8a/	.	8cc\	.
=117	=117	=117	=117	=117	=117	=117	=117
!!linebreak:original
8F\	.	8f\	.	8cc\	.	8aa\	.
8r	.	4f\	.	(4cc\	.	(4aa\	.
!LO:TX:b:t=arco	!LO:DY:a	!	!	!	!	!	!
[4c\	sf	.	.	.	.	.	.
.	.	16cc\LL	.	16b-\LL	.	16gg\LL	.
.	.	16cc\JJ	.	16g\JJ)	.	16ee\JJ)	.
=118	=118	=118	=118	=118	=118	=118	=118
4c\]	.	16cc\LL	.	(16g\LL	.	(16ee\LL	.
.	.	16cc\J	.	16b-\J)	.	16gg\J)	.
.	.	[8cc\J	.	[8b-\J	.	[8gg\J	.
(4D\	.	16cc\LL]	.	16b-\LL]	.	16gg\LL]	.
.	.	16cc\	.	(16a\	.	(16ff\	.
.	.	16cc\	.	16g\	.	16ee\	.
.	.	16cc\JJ	.	16f\JJ)	.	16dd\JJ	.
=119	=119	=119	=119	=119	=119	=119	=119
8G\)	.	8cc\L	.	(8f#X/L	.	8dd#X\L	.
8r	.	8cc\	.	8g/	.	8ee\	.
!LO:TX:b:t=piz	!	!	!	!	!	!	!
.	.	.	.	.	.	8qgg/	.
8GG/	.	8.cc\	.	8.a/	.	8.ff\	.
8r	.	.	.	.	.	.	.
.	.	16bn\Jk	.	16fn/Jk)	.	16ee\Jk)	.
=120	=120	=120	=120	=120	=120	=120	=120
!LO:TX:t=P:problem=takt nieczytelny	!	!	!	!	!	!	!
2ryy	.	8g\L	.	(8f/L	.	(8dd\L	.
.	.	8g\J	.	8e/J)	.	8cc\J)	.
.	.	4r	.	4r	.	16r	.
.	.	.	.	.	.	16cc'\LL	<
.	.	.	.	.	.	16ee'\	.
.	.	.	.	.	.	16gg'\JJ	[
=121	=121	=121	=121	=121	=121	=121	=121
!!linebreak:original
4r	.	4r	.	4r	.	8bb-'\	.
.	.	.	.	.	.	[8ff#X\	.
!LO:TX:b:t=arco	!	!	!	!	!	!	!
[4c\	sf	16r	.	16r	.	16ff#\LL]	.
.	.	(16b-\LL	.	(16dd\LL	.	(16gg\	.
.	.	16f#X\	.	16ee-X\	.	16aa\	.
.	.	16g\JJ	.	16dd\JJ	.	16bb-\JJ	.
=122	=122	=122	=122	=122	=122	=122	=122
4c\]	.	8g\)	.	8ff#X\)	.	8ddd\L)	.
.	.	8r	.	8r	.	[8aa\J	.
[>4C/	sf	16r	.	16r	.	16aa\LL]	.
.	.	(16dd\LL	.	(16ff#\LL	.	(16bb-\	.
.	.	16a\	.	16gg\)	.	16ccc#X\	.
.	.	16b-\JJ	.	16gg\JJ	.	16ddd\JJ	.
=123	=123	=123	=123	=123	=123	=123	=123
4C/]	.	16ee\LL)	.	[2bb-\	.	16ggg\LL)	.
.	.	16dd'\J	.	.	.	16fff'\J	.
.	.	[8dd\J	.	.	.	[8fff\J	.
[4CC/	.	16dd\LL]	.	.	.	16fff\LL]	.
.	.	(16cc\	.	.	.	(16eee\	.
.	.	16dd\	.	.	.	16ddd\	.
.	.	16ee\JJ	.	.	.	16ccc\JJ	.
=124	=124	=124	=124	=124	=124	=124	=124
4CC/]	.	16dd\LL)	.	4bb-\_	.	16fff\LL)	.
.	.	16cc'\J	.	.	.	16eee'\J	.
.	.	[8cc\J	.	.	.	[8eee\J	.
8C/	.	16cc\LL]	.	8bb-\]	.	16eee\LL]	.
.	.	16dd\	.	.	.	(16ddd\	.
8r	.	16ee\JJ	.	8r	.	16ccc\	.
.	.	16r	.	.	.	16bb-\JJ)	.
=125	=125	=125	=125	=125	=125	=125	=125
!!linebreak:original
!LO:TX:b:t=piz	!	!	!	!	!	!	!
8F\	.	8f'\	.	8cc'\	.	8aa'\	.
8r	.	4f\	.	(4cc\	.	(4aa\	.
!LO:TX:b:t=arco	!	!	!	!	!	!	!
[4c\	.	.	.	.	.	.	.
.	.	8cc\	.	16b-\LL	.	16gg\LL	.
.	.	.	.	16g\JJ)	.	16ee\JJ)	.
=126	=126	=126	=126	=126	=126	=126	=126
4c\]	.	8cc\	.	(16g\LL	.	(16ee\LL	.
.	.	.	.	16b-\J)	.	16gg\J)	.
.	.	4cc\	.	[8b-\J	.	[8gg\J	.
(4F\	.	.	.	16b-\LL]	.	16gg\LL]	.
.	.	.	.	(16a\	.	(16ff\	.
.	.	16b-\LL	.	16g\	.	16ee\	.
.	.	16b-\JJ	.	16f\JJ	.	16dd\JJ	.
=127	=127	=127	=127	=127	=127	=127	=127
8c\)	.	4..b-\	.	8e/L)	.	8cc\L	.
8r	.	.	.	8e/	.	8cc#X\	.
!LO:TX:b:t=piz	!	!	!	!	!	!	!
8C/	.	.	.	8.f/	.	8.dd\)	.
8r	.	.	.	.	.	.	.
.	.	16b-\	.	16e/Jk	.	(16ee\Jk	.
=128	=128	=128	=128	=128	=128	=128	=128
8F\	.	(8b-\L	.	(8e/L	.	8gg\L	.
8r	.	8a\J)	.	8f/J)	.	8ff\J)	.
4r	.	4r	.	4r	.	4r	.
=129||	=129||	=129||	=129||	=129||	=129||	=129||	=129||
!!pagebreak:original
*k[b-e-a-d-]	*	*k[b-e-a-d-]	*	*k[b-e-a-d-]	*	*k[b-e-a-d-]	*
*M3/4	*	*M3/4	*	*M3/4	*	*M3/4	*
!	!	!	!	!	!	!LO:TX:a:B:t=allegro assai\n    con rabbio.	!
!	!	!	!LO:DY:rj	!	!LO:DY:rj	!LO:TX:a:B:t=Var. VIII.	!
4F\	.	4c\	f	4f/	f	4a-/	f
4.D-\	.	4.B-/	.	4.f/	.	4.b-\	.
8BB-/	.	8B-/	.	8f/	.	8dd-\	.
=130	=130	=130	=130	=130	=130	=130	=130
(8AA-/	.	8c\	.	(8f/	.	(8cc\	.
4GG/)	.	4c\	.	4b-\)	.	4een\)	.
.	.	.	.	.	<	.	<
8FF/L	<	8c\L	<	8a-/L	.	8ff\L	.
8EEn/	.	8c\	.	8g/	.	8gg\	.
8FF/J	.	8c\J	[[	8f/J	.	8aa-\J	.
=131	=131	=131	=131	=131	=131	=131	=131
!LO:TX:b:t=accel	!	!LO:TX:b:t=accel	!	!LO:TX:b:t=accell	!	!LO:TX:b:t=accell	!
4EEn/	[	4c\	.	4g/	[	4ccc\	[
4.En\	.	4.d-\	.	4.g/	.	4.bb-\	.
8EE/	.	8G/	.	8b-\	.	8ddd-\	.
=132	=132	=132	=132	=132	=132	=132	=132
4FF/	.	4A-/	.	4a-/	.	4ccc\	.
8AA-/	.	8f\	.	8f/	.	8aa-\	.
8r	.	8r	.	8r	.	8r	.
4r	.	4r	.	4r	.	4r	.
=133	=133	=133	=133	=133	=133	=133	=133
!!linebreak:original
!	!	!	!	!	!	!LO:TX:b:t=un poco meno mosso	!
4AA-/	mf	4c\	mf	4cc\	mf	4fff\	mf
!	!	!LO:TX:t=P:problem=niepełna miara w takcie	!	!	!	!	!
4.BB-/	.	4B-\	.	4.ff\	.	4.ddd-\	.
.	.	8ryy	.	.	.	.	.
8D-\	.	8f\	.	8ff\	.	8bb-\	.
=134	=134	=134	=134	=134	=134	=134	=134
(8C/	.	(8f\	.	(8ff\	.	(8aa-\	.
4En\)	.	4g\)	.	4cc\)	.	4gg\)	.
8F'\L	p	8a-'\L	p	8cc'\L	p	8ff'\L	p
!LO:TX:b:t=dolce	!	!LO:TX:b:t=dolce	!	!LO:TX:b:t=dolce	!	!LO:TX:b:t=dolce	!
8G'\	.	8g'\	.	8cc'\	.	8een'\	.
8A-'\J	.	8f'\J	.	8cc'\J	.	8ff'\J	.
=135	=135	=135	=135	=135	=135	=135	=135
4c\	.	4a-\	.	4a-/	.	4een\	.
!LO:TX:b:t=rit	!	!LO:TX:b:t=rit	!	!LO:TX:b:t=rit	!	!LO:TX:b:t=rit	!
4.B-\	.	4.g\	.	4.dd-\	.	4.ee\	.
8d-\	.	8g\	.	8b-\	.	8ee\	.
=136	=136	=136	=136	=136	=136	=136	=136
(4c\	.	(4a-\	.	(4a-/	.	(4ee-\	.
8A-\)	.	8e-\)	.	8cc\L)	.	8aa-\)	.
8r	.	8r	.	8cc\	pp	8r	.
!	!	!	!	!LO:TX:b:t=con dolore:i	!	!	!
4r	.	4r	.	8b-\	.	4r	.
.	.	.	.	8a-\J	.	.	.
=137	=137	=137	=137	=137	=137	=137	=137
!!linebreak:original
!	!	!LO:TX:a:t=con dolore:i	!	!	!	!	!
2.r	.	8c\L	pp	(8a-/	.	2.r	.
.	.	8B-\J	.	4g/)	.	.	.
.	.	(8A-/	.	.	.	.	.
.	.	4G/)	.	8b-\	.	.	.
.	.	.	.	8a-\L	.	.	.
.	.	8B-/	.	8g\J	.	.	.
=138	=138	=138	=138	=138	=138	=138	=138
2.r	.	8B-/L	.	(8g/	.	4r	.
.	.	8A-/J	.	4f/)	.	.	.
.	.	(8G/	.	.	.	8r	.
!	!	!	!	!	!LO:HP:t=cre-scen-do:ext=cd	!LO:TX:a:t=con dolore:i	!
.	.	4F/)	.	8a-/	<	8ff\L	p
.	.	.	.	8g/L	.	8ee-\	.
.	.	8B-/	.	8f/J	.	8dd-\J	.
=139	=139	=139	=139	=139	=139	=139	=139
!LO:TX:a:t=con dolore:i	!	!	!LO:HP:t=cre-scen-do:ext=cd	!	!	!	!
8F\L	p	8A-/L	<	8f/L	.	(8dd-\	.
8E-\J	.	8G/J	.	8g/J	.	4cc\)	.
8D-\	.	8F/	.	4a-/	.	.	.
4C/	.	4c\	.	.	.	8ee-\	.
.	.	.	.	8b-\L	.	8dd-\L	.
8En\	.	8c\	.	8a-\J	.	8cc\J	.
=140	=140	=140	=140	=140	=140	=140	=140
!	!LO:HP:t=cre-scendo:ext=cd	!	!	!	!	!	!LO:HP:t=cre-scendo:ext=cd
8E-X\L	<	8G/L	.	8g/L	.	(8cc\	<
8D-\J	.	8A-/J	.	8f/J	.	4b-\)	.
8C/	.	8c\	.	8e-/	.	.	.
4BB-/	.	4G/	.	4e-/	[[	8dd-\	.
.	.	.	[[	.	.	8cc\L	.
8C/	[[	8c\	.	8en/	.	8b-\J	[
=141	=141	=141	=141	=141	=141	=141	=141
!!linebreak:original
!LO:TX:a:t=a Tempo	!	!LO:TX:a:t=a Tempo	!	!LO:TX:a:t=a Tempo	!	!LO:TX:a:t=â Tempo	!LO:DY:rj
4F\	f	4c\	f	4f/	f	4a-/	f
4.D-\	.	4.B-/	.	4.f/	.	4.b-\	.
!	!LO:HP:t=cre-scen-do:ext=cd	!	!LO:HP:t=cre-scen-do:ext=cd	!	!LO:HP:t=cre-scen-do:ext=cd	!	!LO:HP:t=cre-scen-do:ext=cd
8BB-/	<	8B-/	<	8f/	<	8dd-\	<
=142	=142	=142	=142	=142	=142	=142	=142
8C/	.	8A-/	.	8f/	.	8cc\	.
4BB-/	.	4c\	.	4g/	.	4een\	.
8FF/L	.	8c\L	.	8a-\L	.	8ff\L	.
8EEn/	.	8c\	.	8b-\	.	8gg\	.
8FF/J	.	8c\J	.	8a-\J	.	8aa-\J	.
=143	=143	=143	=143	=143	=143	=143	=143
4C/	.	4A-/	.	4f/	.	4ccc\	.
4.CC/	.	4.B-/	.	4.en/	.	4.ddd-\	.
.	.	.	.	.	.	.	[
8C/	[	8B-/	[	8cc\	[	8eeen\	.
=144	=144	=144	=144	=144	=144	=144	=144
(4FF/	ff	(4A-/	ff	(4cc\	ff	(4fff\	ff
8F\)	.	8c\)	.	8a-/)	.	8ff\)	.
8r	.	8r	.	8r	.	8r	.
4r	.	4r	.	4r	.	4r	.
=145||	=145||	=145||	=145||	=145||	=145||	=145||	=145||
!!pagebreak:original
*k[b-]	*	*k[b-]	*	*k[b-]	*	*k[b-]	*
*M9/8	*	*M9/8	*	*M9/8	*	*M9/8	*
*MM108	*	*MM108	*	*MM108	*	*MM108	*
!	!	!	!	!	!	!LO:TX:a:t=Lento.	!
!	!	!	!	!	!	!LO:TX:a:B:t=Var IX.	!
!	!LO:DY:rj	!	!LO:DY:rj	!	!LO:DY:rj	!LO:TX:a:B:t=[quarter-dot]=72	!
4.d\	pp	8cc'\L	pp	8ff'\L	pp	4.aa\	pp
.	.	8cc'\	.	8ff'\	.	.	.
.	.	8cc'\J	.	8ff'\J	.	.	.
!LO:TX:b:t=con expres.	!	!	!	!	!	!LO:TX:b:t=con expres.	!
[4.c\	.	8cc'\L	.	8ee'\L	.	[4.gg\	.
.	.	8cc'\	.	8ee'\	.	.	.
.	.	8cc'\J	.	8ee'\J	.	.	.
4c\]	.	8cc'\L	.	8ee'\L	.	4gg\]	.
.	.	8cc'\	.	8ee'\	.	.	.
8e\	.	8g'\J	.	8bn'\J	.	8ee\	.
=146	=146	=146	=146	=146	=146	=146	=146
!LO:TX:b:t=molto legato	!	!	!	!	!	!LO:TX:b:t=molto legato	!
8a\	.	8a\L	.	8cc\L	.	8ee\	.
[4g\	.	8bn\	.	8dd\	.	[4gg\	.
.	.	8b\J	.	8dd\J	.	.	.
*	*	*	*	*tremolo	*	*	*
4g\]	.	8b\L	.	8dd\L	.	4gg\]	.
.	.	8b\	.	8dd\	.	.	.
8d\	.	8a\J	.	8dd\J	.	8ff\	.
4A\	.	8a\L	.	8cc\L	.	4ee\	.
.	.	8a\	.	8cc\	.	.	.
8B-\	.	8f\J	.	8b-\J	.	8dd\	.
=147	=147	=147	=147	=147	=147	=147	=147
*	*	*tremolo	*	*	*	*	*
4.c\	.	8e\L	.	8g/L	.	4.cc\	.
.	.	8e\	.	8g/	.	.	.
.	.	8e\J	.	8g/J	.	.	.
[4.G\	.	8f\L	.	8b-\L	.	[4.dd\	.
.	.	8f\	.	8b-\	.	.	.
.	.	8f\J	.	8b-\J	.	.	.
4G\]	.	8f\L	.	8b-\L	.	4dd\]	.
.	.	8f\J	.	8b-\J	.	.	.
8B-\	.	8d\	.	8f/	.	8b-\	.
=148	=148	=148	=148	=148	=148	=148	=148
[4.F\	.	8c\	.	8f/	.	4.a/	.
.	.	8A/L	.	8d/L	.	.	.
.	.	8A/J	.	8d/J	.	.	.
4.F\]	.	8A/L	.	8d/	.	4r	.
.	.	8A/	.	8c/L	.	.	.
.	.	8A/J	.	8c/J	.	8r	.
4F\	.	8A/	.	8c/	.	4r	.
.	.	8F/L	.	8A/L	.	.	.
8D\	.	8F/J	.	8A/J	.	8r	.
=149	=149	=149	=149	=149	=149	=149	=149
!!linebreak:original
4.f\	.	8cc\L	.	8ff\L	.	4.aa\	.
.	.	8cc\	.	8ff\	.	.	.
.	.	8cc\J	.	8ff\J	.	.	.
!	!	!	!	!	!	!LO:N:vis=4	!
[4.c\	.	8cc\L	.	8ee\L	.	[4gg.\	.
.	.	8cc\	.	8ee\	.	.	.
.	.	8cc\J	.	8ee\J	.	.	.
4c\]	.	8cc\L	.	8ee\L	.	4gg\]	.
.	.	8cc\J	.	8ee\J	.	.	.
8e\	.	8g\	.	8bn\	.	8ee\	.
=150	=150	=150	=150	=150	=150	=150	=150
8a\	<	8a\	.	8cc\	.	8ee\	<
4g\	.	8bn\L	<	8dd\L	<	[4gg\	.
.	.	8b\J	.	8dd\J	.	.	.
4g\	.	8b\L	.	8dd\L	.	4gg\]	.
.	.	8b\J	.	8dd\	.	.	.
8d\	.	8a\	.	8dd\J	.	8ff\	.
4A\	.	8a\L	.	8cc\L	.	4ee\	.
.	.	8a\J	.	8cc\J	.	.	.
8B-\	.	8f\	.	8b-\	.	8dd\	.
=151	=151	=151	=151	=151	=151	=151	=151
4.A\	.	8a\L	.	8cc\L	.	4.ee\	.
.	.	8a\	.	8cc\	.	.	.
.	.	8a\J	.	8cc\J	.	.	.
[4.D\	.	8a\L	.	8dd\L	.	[4.ff\	.
.	.	8a\	.	8dd\	.	.	.
.	.	8a\J	[	8dd\J	.	.	[
4D\]	[	8a\L	.	8dd\L	[[	4ff\]	.
.	.	8a\J	.	8dd\J	.	.	.
8G\	>	8g\	>	8bn\	.	8dd\	>
=152	=152	=152	=152	=152	=152	=152	=152
[4.c\	]	8e\L	]	8g/	.	4.cc\	]
.	.	8e\	.	8a/L	.	.	.
.	.	8e\J	.	8a/J	.	.	.
4c\]	.	8e\L	.	8a/L	.	4r	.
.	.	8e\	.	8a/J	.	.	.
8c\	p	8e\J	.	8g/	.	8cc\	p
!	!	!	!LO:DY:rj	!	!LO:DY:rj	!	!
4A\	.	4a\	p	8cc\L	p	4ee\	.
.	.	.	.	8cc\J	.	.	.
8G\	.	8b-\	.	8dd\	.	8gg\	.
=153	=153	=153	=153	=153	=153	=153	=153
!!linebreak:original
4E\	.	8ee\L	.	8gg\L	.	4bb-\	<
.	.	8ee\J	.	8gg\J	.	.	.
8A\	<	8cc\	<	8ee\	<	8aa\	.
4D\	.	8a\L	.	8dd\L	.	4ff#X\	.
.	.	8a\J	.	8dd\	.	.	.
8BB-/	.	8g\	.	8dd\J	.	8gg\	.
4F#X\	.	8d\L	.	8dd\L	.	4aa\	.
.	.	8d\	.	8dd\	.	.	.
8G\	.	8d\J	.	8dd\J	.	8bb-\	.
=154	=154	=154	=154	=154	=154	=154	=154
4G\	.	8gg\L	.	8bb-\L	.	4ddd\	.
.	.	8gg\J	.	8bb-\J	.	.	.
8c\	.	8ee\	.	8gg\	.	8ccc\	.
4F\	.	8cc\L	.	8ff\L	.	4aa\	.
.	.	8cc\J	.	8ff\	.	.	.
8D\	.	8b-\	.	8ff\J	.	8bb-\	.
4A\	.	8f\L	[	8ff\L	.	4ccc\	.
.	.	8f\	.	8ff\	[	.	.
8B-\	[[	8f\J	.	8ff\J	.	8ddd\	[[
=155	=155	=155	=155	=155	=155	=155	=155
4.B-\	sf >	8dd\L	sf >	8gg\L	sf >	4.ggg\	sf >
.	.	8dd\	.	8gg\	.	.	.
.	.	8dd\J	.	8gg\J	.	.	.
4.Bn\	.	8dd\L	.	8gg#X\L	.	4.fff\	.
.	.	8dd\	.	8gg#\	.	.	.
.	.	8dd\J	.	8gg#\J	.	.	.
4c\	.	8ee\L	.	8aa\L	.	4eee\	.
.	.	8ee\J	.	8aa\J	.	.	.
8d\	.	8ff\	.	8bb-\	.	8ddd\	.
=156	=156	=156	=156	=156	=156	=156	=156
4.A-X\	.	8cc\L	.	8ff\L	.	4.fff\	.
.	.	8cc\	.	8ff\	.	.	.
.	.	8cc\J	.	8ff\J	.	.	.
!	!	!	!	!	!	!LO:TX:t=P:problem=niepełna miara w takcie	!
4.An\	.	8cc\L	.	8ff#X\L	.	4eee\	.
.	.	8cc\	.	8ff#\	.	.	.
.	.	8cc\J	.	8ff#\J	.	8ryy	.
4B-\	.	8dd\L	.	8gg\L	]	4ddd\	.
.	.	8dd\J	.	8gg\	.	.	.
8c\	]	8ee\	]	8gg\J	.	8ccc\	]
=157	=157	=157	=157	=157	=157	=157	=157
!!linebreak:original
4.f\	pp	8cc\L	pp	8ff\L	pp	4.aa\	pp
.	.	8cc\	.	8ff\	.	.	.
.	.	8cc\J	.	8ff\J	.	.	.
[4.c\	.	8cc\L	.	8ee\L	.	[4.gg\	.
.	.	8cc\	.	8ee\	.	.	.
.	.	8cc\J	.	8ee\J	.	.	.
4c\]	.	8cc\L	.	4ee\	.	4gg\]	.
.	.	8cc\J	.	.	.	.	.
8e\	.	8g\	.	8bn\	.	8ee\	.
=158	=158	=158	=158	=158	=158	=158	=158
8a\	.	8a\	.	8ee\	.	8ee\	.
[4g\	.	8bn\L	.	8dd\L	.	[4gg\	.
.	.	8b\J	.	8dd\J	.	.	.
4g\]	.	8b\L	.	8dd\L	.	4gg\]	.
.	.	8b\J	.	8dd\	.	.	.
8d\	.	8a\	.	8dd\J	.	8ff\	.
4B-\	.	8f\L	.	8b-\L	.	4dd\	.
.	.	8f\J	.	8b-\J	.	.	.
8G\	.	8d\	.	8f/	.	8b-\	.
=159	=159	=159	=159	=159	=159	=159	=159
!	!	!	!	!LO:TX:t=P:problem=przepełniona miara w takcie	!	!	!
4.c\	.	8c\L	.	8f/L	.	4.a/	.
.	.	8c\	.	8f/	.	.	.
.	.	8c\J	.	8f/J	.	.	.
!LO:TX:b:i:t=rit	!	!LO:TX:b:i:t=rit	!	!LO:TX:b:i:t=rit	!	!LO:TX:b:i:t=ri - te - nuto	!
[4.C/	.	8c\L	.	8f/L	.	[4.g/	.
.	.	8c\	.	8f/J	.	.	.
.	.	8c\J	.	8e/	.	.	.
!	!	!	!	!LO:N:vis:4.	!	!	!
4C/]	.	8B-\L	.	8e/L	.	4g/]	.
.	.	8B-\	.	8e/J	.	.	.
8C/	.	8B-\J	.	8f/	.	8f/	.
*	*	*	*	*Xtremolo	*	*	*
=160	=160	=160	=160	=160	=160	=160	=160
8F\	.	8A/L	.	8f/L	.	[2.f;/	.
[4D\	.	8A/	.	8d/	.	.	.
.	.	8A/J	.	8d/J	.	.	.
*	*	*	*	*tremolo	*	*	*
8D\]	.	8A/	.	8d/L	.	.	.
4BB-/	.	8B-/L	.	8d/	.	.	.
.	.	8B-/J	.	8d/J	.	.	.
4.F;<\	.	4.A;</	.	4.c;</	.	4.f;/]	.
*Xtremolo	*	*Xtremolo	*	*Xtremolo	*	*Xtremolo	*
=161||	=161||	=161||	=161||	=161||	=161||	=161||	=161||
!!pagebreak:original
*k[b-]	*	*k[b-]	*	*k[b-]	*	*k[b-]	*
*M3/4	*	*M3/4	*	*M3/4	*	*M3/4	*
!LO:TX:b:i:t=Cello Tacet.	!	!	!	!	!	!LO:TX:a:B:t=Tempo dela Valse\ncon delicatezza	!
!	!	!	!	!	!	!LO:TX:a:B:t=Var X	!
2.r	.	2.r	.	2.r	.	8r	.
.	.	.	.	.	.	(8aa\	p
.	.	.	.	.	.	4.gg\	.
.	.	.	.	.	.	8ff\	.
=162	=162	=162	=162	=162	=162	=162	=162
2.r	.	8r	p	8r	p	8ee\L	.
.	.	(8a\	.	(8cc\	.	8ff\	.
.	.	4.g\	.	4.b-\)	.	8ee\	.
.	.	.	.	.	.	8dd\	.
.	.	.	.	.	.	8cc\	.
.	.	8f\	.	(8b-\	.	8dd\J)	.
=163	=163	=163	=163	=163	=163	=163	=163
2.r	.	8e\L	.	8cc\)	.	8r	.
.	.	8f\	.	(4g/	.	(8dd\	.
.	.	8e\	.	.	.	4.cc\	.
.	.	8d\	.	8f/L	.	.	.
.	.	8c\	.	8e/	.	.	.
.	.	8d\J)	.	[8f/J)	.	8b-\	.
=164	=164	=164	=164	=164	=164	=164	=164
2.r	.	8r	.	8f/]	.	8a\L	.
.	.	(8d\	.	(4f/	.	8b-\	.
.	.	4.c\	.	.	.	8a\	.
.	.	.	.	8e/L	.	8g\	.
.	.	.	.	8d/	.	8f\	.
.	.	8B-\)	.	8e/J)	.	8g\J	.
=165	=165	=165	=165	=165	=165	=165	=165
!!linebreak:original
2.r	.	(8A/L	.	[4f/	.	4a/)	.
.	.	8B-/	.	.	.	.	.
.	.	8A/	.	8f/L]	.	4.cc\	f
.	.	8G/	.	(8e/	.	.	.
.	.	8F/	.	8d/	.	.	.
.	.	8G/J	.	8f/J	.	(8bn\	.
=166	=166	=166	=166	=166	=166	=166	=166
2.r	.	4A/)	.	8e/L	.	8cc\L	.
.	.	.	.	8f/	.	8ff\	.
.	.	(4.c\	f	8g/	.	8ee\	.
.	.	.	.	8f/	.	8dd\	.
.	.	.	.	8e/	.	8cc\	.
.	.	8Bn\	.	8f/J	.	8dd\J	.
=167	=167	=167	=167	=167	=167	=167	=167
2.r	.	8c\L	.	8e/)	.	8cc\)	.
.	.	8f\	.	8r	.	8r	.
.	.	8e\	.	4r	.	4.g/	p
.	.	8d\	.	.	.	.	.
.	.	8c\	.	4r	.	.	.
.	.	8d\J	.	.	.	8g/	.
=168	=168	=168	=168	=168	=168	=168	=168
2.r	.	4c\)	.	8r	f	4cc\	.
.	.	.	.	(8f/L	.	.	.
.	.	4.G/	.	8e/	.	4r	.
.	.	.	.	8d/	.	.	.
.	.	.	.	8c/	.	4r	.
.	.	8G/	.	8d/J	.	.	.
=169	=169	=169	=169	=169	=169	=169	=169
!!linebreak:original
!	!	!	!	!LO:TX:t=P:problem=brak dokończenia łuku	!	!	!
2.r	.	4c\	.	8c/)	.	8r	p
.	.	.	.	8r	.	(8b-\L	.
.	.	4r	.	4r	.	8a\	.
.	.	.	.	.	.	8g\	.
.	.	4r	.	4r	.	8f#X\	.
.	.	.	.	.	.	8g\J	.
=170	=170	=170	=170	=170	=170	=170	=170
2.r	.	8r	.	8r	p	4dd\	.
.	.	(8B-/L	p	(8e/L	.	.	.
.	.	8A/	.	8f/	.	4.cc\	.
.	.	8G/	.	8e/	.	.	.
.	.	8F#X/	.	8d#X/	.	.	.
.	.	8G/J	.	8e/J)	.	8b-\)	.
=171	=171	=171	=171	=171	=171	=171	=171
2.r	.	4d\	.	8r	.	8r	.
!	!	!	!	!	!	!	!LO:HP:t=crescendo
.	.	.	.	(4g/	.	(8ff\L	<
.	.	4.c\	.	.	.	8ee\	.
.	.	.	.	8f/L	.	8dd\	.
.	.	.	.	8e/	.	8cc\	.
.	.	8Bn\)	.	8f/J	.	8dd\J	.
=172	=172	=172	=172	=172	=172	=172	=172
2.r	.	8r	.	8e/)	.	4cc\)	.
!	!	!	!LO:HP:t=crescendo	!	!	!	!
.	.	(8f\L	<	8r	.	.	.
.	.	8e\	.	4r	.	4r	.
.	.	8d\	.	.	.	.	.
.	.	8c\	.	4r	.	4r	.
.	.	8d\J	.	.	.	.	.
=173	=173	=173	=173	=173	=173	=173	=173
2.r	.	4c\)	.	8r	.	8r	.
!	!	!	!	!	!LO:HP:t=cresce.	!	!
.	.	.	.	(8f/L	<	(8aa\	f
.	.	4r	.	8e/	.	4.gg\	.
.	.	.	.	8d/	.	.	.
.	.	4r	.	8c/	.	.	.
.	.	.	.	8d/J)	.	8ff\)	.
=174	=174	=174	=174	=174	=174	=174	=174
!!linebreak:original
2.r	.	8r	.	8c\L	.	(8ee\L	.
.	.	(8a\	f	(8cc\J	.	8ff\	.
.	.	4.g\	.	4.b-\)	.	8ee\	.
.	.	.	.	.	.	8dd\	.
.	.	.	.	.	.	8cc\	.
.	.	8f\	.	(8b-\	.	8dd\J)	.
=175	=175	=175	=175	=175	=175	=175	=175
2.r	.	8e\L	.	8cc\)	.	8r	.
.	.	8f\	.	(4g/	f	(8dd\	.
.	.	8e\	.	.	.	4.cc\	.
.	.	8d\	.	8f/L	.	.	.
.	.	8c\	.	8e/	.	.	.
.	.	8d\J)	.	8f/J	.	8f/	.
=176	=176	=176	=176	=176	=176	=176	=176
2.r	.	8r	.	8c/)	.	8a\L	.
.	.	(8d\	.	4f/	.	8b-\	.
.	.	4.c\	.	.	.	8a\	.
.	.	.	.	(8e/L	.	8g\	.
.	.	.	.	8c/	.	8f\	.
.	.	8F/)	.	8A/J)	.	8g\J	.
=177	=177	=177	=177	=177	=177	=177	=177
2.r	.	(8A/L	.	4c/	.	4f/)	.
.	.	8B-/	.	.	.	.	.
.	.	8A/	.	4r	.	4r	.
.	.	8G/	.	.	.	.	.
.	.	8E/	.	4r	.	4r	.
.	.	8F/J	.	.	.	.	.
=178	=178	=178	=178	=178	=178	=178	=178
2.r	.	4F/)	.	2.r	.	2.r	.
.	.	4r	.	.	.	.	.
.	.	4r	.	.	.	.	.
=179||	=179||	=179||	=179||	=179||	=179||	=179||	=179||
!!pagebreak:original
*k[b-]	*	*k[b-]	*	*k[b-]	*	*k[b-]	*
*M3/4	*	*M3/4	*	*M3/4	*	*M3/4	*
!	!	!	!	!	!	!LO:TX:a:B:t=Presto con fuoco.	!
!	!	!	!	!	!	!LO:TX:a:B:t=Var XI.	!
!	!	!	!	!	!	!LO:TUP:a	!
4F\	p	4A/	.	4f/	p	(12cc\L	p
.	.	.	.	.	.	12dd\	.
.	.	.	.	.	.	12ee\J	.
!	!	!	!	!	!	!LO:TX:t=P:problem=klamra łukowa	!
!	!	!	!	!	!	!LO:TUP:a	!
4r	.	4r	.	4r	.	12ff\L)	.
.	.	.	.	.	.	12ff\	.
.	.	.	.	.	.	[12ff\J	.
!	!	!	!	!	!	!LO:TX:t=P:problem=klamra łukowa	!
!	!	!	!	!	!	!LO:TUP:a	!
4FF/	.	4A/	.	4f/	.	12ff\L]	.
.	.	.	.	.	.	12gg\	.
.	.	.	.	.	.	[12aa\J	.
=180	=180	=180	=180	=180	=180	=180	=180
*	*	*	*	*	*	*Xtuplet	*
4GG/	.	4B-\	.	4f/	.	12aa\L]	.
.	.	.	.	.	.	(12gg\	.
.	.	.	.	.	.	12ff\J	.
4G\	.	4B-\	.	4f/	.	12ee\L	.
.	.	.	.	.	.	12dd\)	.
.	.	.	.	.	.	[12dd\J	.
4r	.	4r	.	4r	.	(12dd\L]	.
.	.	.	.	.	.	12cc\	.
.	.	.	.	.	.	[12b-\J)	.
=181	=181	=181	=181	=181	=181	=181	=181
4C/	.	4B-\	.	4e/	.	12b-\L]	.
.	.	.	.	.	.	(12cc\	.
.	.	.	.	.	.	12dd\J	.
4r	.	4r	.	4r	.	12ee\L)	.
.	.	.	.	.	.	12ee'\	.
.	.	.	.	.	.	[12ee\J	.
4C#X/	.	4A/	.	4e/	.	(12ee\L]	.
.	.	.	.	.	.	12ff\	.
.	.	.	.	.	.	[12gg\J)	.
=182	=182	=182	=182	=182	=182	=182	=182
4D\	.	4A/	.	4f/	.	12gg\L]	.
.	.	.	.	.	.	(12ff\	.
.	.	.	.	.	.	12ee\J	.
4E\	.	4G/	.	4c/ 4g	.	12dd\L	.
.	.	.	.	.	.	12cc\)	.
.	.	.	.	.	.	[12cc\J	.
4F\	.	4F/	.	4c/ 4a	.	(12cc\L]	.
.	.	.	.	.	.	12b-\	.
.	.	.	.	.	.	12a\J)	.
=183	=183	=183	=183	=183	=183	=183	=183
!!linebreak:original
4F\	.	4A/	.	4f/	.	(12cc\L	.
.	.	.	.	.	.	12dd\	.
.	.	.	.	.	.	12ee\J	.
4r	.	4r	.	4r	.	12ff\L)	.
.	.	.	.	.	.	12ff'\	.
.	.	.	.	.	.	[12ff\J	.
4FF/	.	4A/	.	4f/	.	12ff\L]	.
.	.	.	.	.	.	(12gg\	.
.	.	.	.	.	.	[12aa\J)	.
=184	=184	=184	=184	=184	=184	=184	=184
4GG/	.	4B-/	.	4f/	.	12aa\L]	.
.	.	.	.	.	.	(12gg\	.
!	!	!	!	!	!	!	!LO:HP:t=cre-scen-do:ext=cd
.	.	.	.	.	.	12ff\J	<
4G\	.	4Bn/	.	4f/	.	12ee\L	.
.	.	.	.	.	.	12dd\)	.
.	.	.	.	.	.	[12dd\J	.
4r	.	4r	.	4r	.	12dd\L]	.
.	.	.	.	.	.	(12ee\	.
.	.	.	.	.	.	[12ff\J)	.
=185	=185	=185	=185	=185	=185	=185	=185
4A\	.	8c\L	.	4f/	.	12ff\L]	.
.	.	.	.	.	.	(12ee\	.
.	.	8d\J	.	.	.	.	.
.	.	.	.	.	.	12dd\J	.
4G\	.	4e\	.	4g/	.	12cc\L)	.
.	.	.	.	.	.	12cc'\	.
.	.	.	.	.	.	12cc'\J	.
[4GG/	.	8d\L	.	[>4f/	.	(12bn\L	.
.	.	.	.	.	.	12cc\	.
.	.	[8Bn\J	.	.	.	.	.
.	.	.	.	.	.	[12dd\J)	.
=186	=186	=186	=186	=186	=186	=186	=186
(8GG/L]	.	(8B\L]	.	(8f/L]	.	(12dd\L]	[
.	.	.	.	.	.	12cc\)	.
8C/J)	.	8c\J)	.	8e/J)	.	.	.
.	.	.	.	.	.	12cc'\J	.
!LO:TX:t=P:problem=klamra łukowa	!	!	!	!	!	!	!
!LO:TUP:b	!	!	!	!	!	!	!
12r	.	2r	.	4r	.	8c/	.
12C/L	.	.	.	.	.	.	.
.	.	.	.	.	.	8r	.
12C/J	.	.	.	.	.	.	.
!	!	!	!	!	!	!LO:TX:t=P:problem=klamra łukowa i 3	!
*	*	*	*	*	*	*tuplet	*
!	!	!	!	!	!	!LO:TUP:a	!
8CC/	.	.	.	4r	.	12r	.
.	.	.	.	.	.	12ee\L	f
8r	.	.	.	.	.	.	.
.	.	.	.	.	.	12gg\J	.
*	*	*	*	*	*	*Xtuplet	*
=187	=187	=187	=187	=187	=187	=187	=187
!!linebreak:original
8r	.	8r	.	8r	.	(12bb-\L	.
.	.	.	.	.	.	12aa\	.
8C/	.	8b-\	.	(8e/	.	.	.
.	.	.	.	.	.	12gg\J	.
!	!	!	!	!LO:TX:t=P:problem=klamra łukowa	!	!	!
!	!	!	!	!LO:TUP:b	!	!	!
[4c\	.	[<4b-\	.	12d#X/L)	.	12ff#X\L)	.
.	.	.	.	12d#'/	.	12ff#'\	.
.	.	.	.	12d#'/J	.	12ff#'\J	.
8c\]	.	8b-\]	.	8e/	.	12gg'\L	.
.	.	.	.	.	.	(12aa\	.
8r	.	8r	.	8r	.	.	.
.	.	.	.	.	.	12bb-\J	.
=188	=188	=188	=188	=188	=188	=188	=188
8r	.	8r	.	8r	.	12ddd\L	.
.	.	.	.	.	.	12ccc\	.
8C/	.	(8g\	.	8dd\	.	.	.
.	.	.	.	.	.	12bb-\J	.
!	!	!LO:TX:t=P:problem=klamra łukowa	!	!	!	!	!
!	!	!LO:TUP:a	!	!	!	!	!
[4c\	.	12f#X\L)	.	[4dd\	.	12aa\L)	.
.	.	12f#'\	.	.	.	12aa'\	.
.	.	12f#'\J	.	.	.	12aa'\J	.
8c\]	.	8g\	.	8dd\]	.	12bb-'\L	.
.	.	.	.	.	.	(12ccc#X\	.
8r	.	8r	.	8r	.	.	.
.	.	.	.	.	.	12ddd\J	.
=189	=189	=189	=189	=189	=189	=189	=189
4r	.	[2.c\ [2.b-	.	4e/	.	12ggg\L	.
.	.	.	.	.	.	12fff\	.
.	.	.	.	.	.	12eee\J	.
!LO:TX:t=P:problem=klamra łukowa	!	!	!	!	!	!	!
!LO:TUP:a	!	!	!	!	!	!	!
12r	.	.	.	4f/	.	12ddd\L	.
12c'\L	.	.	.	.	.	12eee\	.
12c'\J	.	.	.	.	.	12fff\J	.
8C/	.	.	.	4g/	.	12eee\L	.
.	.	.	.	.	.	12ddd\)	.
8r	.	.	.	.	.	.	.
.	.	.	.	.	.	(12ddd\J	.
=190	=190	=190	=190	=190	=190	=190	=190
!	!	!	!	!	!	!	!LO:HP:t=diminuendo
4r	.	2.c\] 2.b-]	.	4d/	.	12fff\L	>
.	.	.	.	.	.	12eee\	.
.	.	.	.	.	.	12ddd\J	.
!LO:TX:t=P:problem=klamra łukowa	!	!	!	!	!	!	!
!LO:TUP:b	!	!	!	!	!	!	!
12r	.	.	.	4e/	.	12ccc\L	.
12C'/L	.	.	.	.	.	12ddd\	.
12C'/J	.	.	.	.	.	12eee\J	.
8c\	.	.	.	8f/L	.	12ddd\L	.
.	.	.	.	.	.	12ccc\)	.
8r	.	.	.	8e/J	.	.	.
.	.	.	.	.	.	12ccc\J	.
=191	=191	=191	=191	=191	=191	=191	=191
!!linebreak:original
4F\	.	4A/	.	4f/	.	(12cc\L	p
.	.	.	.	.	.	12dd\	.
.	.	.	.	.	.	12ee\J	.
4r	.	4r	.	4r	.	12ff\L)	.
.	.	.	.	.	.	12ff'\	.
.	.	.	.	.	.	[12ff\J	.
4FF/	.	4A/	.	4f/	.	12ff\L]	.
.	.	.	.	.	.	(12gg\	.
.	.	.	.	.	.	[12aa\J)	.
=192	=192	=192	=192	=192	=192	=192	=192
4GG/	.	4B-/	.	4f/	.	12aa\L]	.
.	.	.	.	.	.	(12gg\	.
.	.	.	.	.	.	12ff\J	.
4GG#X/	.	4Bn/	.	4f/	.	12ee\L	.
.	.	.	.	.	.	12dd\)	.
.	.	.	.	.	.	[12dd\J	.
4r	.	4r	.	4r	.	12dd\L]	<
.	.	.	.	.	.	(12ee\	.
.	.	.	.	.	.	[12ff\J)	.
=193	=193	=193	=193	=193	=193	=193	=193
4AA/	<	4c\	<	4f/	<	12ff\L]	.
.	.	.	.	.	.	(12gg\	.
.	.	.	.	.	.	[12aa\J)	.
4C/	.	4A/	.	4f/	.	12aa\L]	.
.	.	.	.	.	.	((12bb-\	.
.	.	.	.	.	.	12bbn\J)	.
4CC/	.	4B-/	.	4e/	.	12ccc\L	.
.	.	.	.	.	.	12ddd\	.
.	.	.	.	.	.	12eee\J	.
=194	=194	=194	=194	=194	=194	=194	=194
4FF/	[	4A/	[[	4f/	[	12ggg\L	f
.	.	.	.	.	.	12fff\)	.
.	.	.	.	.	.	12fff\J	[
4r	.	8f\L	f	4r	.	8ff\	.
.	.	8f\J	.	.	.	8r	.
4r	.	8F/	.	4r	.	4r	.
.	.	8r	.	.	.	.	.
=195||	=195||	=195||	=195||	=195||	=195||	=195||	=195||
!!pagebreak:original
*k[b-]	*	*k[b-]	*	*k[b-]	*	*k[b-]	*
*M3/8	*	*M3/8	*	*M3/8	*	*M3/8	*
*MM90	*	*MM90	*	*MM90	*	*MM90	*
!	!	!	!	!	!	!LO:TX:b:i:t=con dolce maniera.	!
!	!	!	!	!	!	!LO:TX:B:a:t=Allegretto	!
!	!	!	!	!	!	!LO:TX:a:B:t=Var. XII	!
!	!LO:DY:a	!	!	!	!	!LO:TX:a:t=[quarter-dot]=60	!
16C'/LL	p	4.r	.	4.r	.	4.r	.
16AA'/J	.	.	.	.	.	.	.
8GG'/	.	.	.	.	.	.	.
8AA'/J	.	.	.	.	.	.	.
=196	=196	=196	=196	=196	=196	=196	=196
!	!	!	!LO:DY:a	!	!	!	!
8FF/	.	(16c\LL	p	4.r	.	4.r	.
.	.	16A\J	.	.	.	.	.
4CC/	.	8G\	.	.	.	.	.
.	.	8A\J	.	.	.	.	.
=197	=197	=197	=197	=197	=197	=197	=197
(16DD/LL	.	8F/)	.	4.r	.	4.r	.
16EE/J	.	.	.	.	.	.	.
8FF/	.	4C/	.	.	.	.	.
8GG/J	.	.	.	.	.	.	.
=198	=198	=198	=198	=198	=198	=198	=198
16FF/LL	.	(16D/LL	.	4.r	.	4.r	.
16EE/J	.	16E/J	.	.	.	.	.
8CC/J)	.	8F/	.	.	.	.	.
8r	.	8G/J)	.	.	.	.	.
=199	=199	=199	=199	=199	=199	=199	=199
!!linebreak:original
16AA/LL	.	(16F/LL	.	(16cc\LL	p	8r	.
16C/J	.	16E/J	.	16a\J	.	.	.
8EE/	.	8C/J)	.	8g\	.	4r	.
[8FF/J	.	8r	.	8a\J	.	.	.
=200	=200	=200	=200	=200	=200	=200	=200
8FF/]	.	(16A\LL	.	8f/)	.	(16ccc\LL	p
.	.	16c\J	.	.	.	16aa\J	.
[4GG/	.	8E\	.	4c/	.	8gg\	.
.	.	8F\J	.	.	.	8aa\J	.
=201	=201	=201	=201	=201	=201	=201	=201
8GG/L]	.	16Bn\LL	.	(16d/LL	.	8ff\)	.
.	.	16c\J	.	16e/J	.	.	.
8AA/	.	8A\	.	8f/	.	4cc\	.
[8GG/J	.	8E\J)	.	8g/J	.	.	.
=202	=202	=202	=202	=202	=202	=202	=202
8GG/L]	.	(16Bn\LL	.	16f/LL	.	(16dd\LL	.
.	.	16c\J)	.	16e/J	.	16ee\J	.
8AA/	.	8c\J	.	8c/J)	.	8ff\	.
8EE/J	.	8r	.	8r	.	8gg\J)	.
=203	=203	=203	=203	=203	=203	=203	=203
!!linebreak:original
16r	.	4r	.	4r	.	(16ff\LL	.
!LO:TX:a:t=accelerando	!	!	!	!	!	!	!
(<16DD/KL	.	.	.	.	.	16ee\J	.
8EE/	<	.	.	.	.	8cc\J)	.
16FF/L	.	8r	.	8r	.	8r	.
16GG/JJ	.	.	.	.	.	.	.
=204	=204	=204	=204	=204	=204	=204	=204
16AA\LL	[[	16r	.	4r	.	4r	.
16D\J	.	(16D/KL	.	.	.	.	.
8C\	>	8E/	.	.	.	.	.
8AA\J)	]	16F/L	<	8r	.	8r	.
.	.	16G/JJ	[	.	.	.	.
=205	=205	=205	=205	=205	=205	=205	=205
!LO:TX:a:t=ritenuto	!	!	!	!	!	!	!
(<8FF/L	p	16A\LL	.	4r	.	4r	.
.	.	16d\J	.	.	.	.	.
8AA/	.	8c\	>	.	.	.	.
16BB-/L	.	8A\J	]	8r	.	8r	.
16C/JJ	.	.	.	.	.	.	.
=206	=206	=206	=206	=206	=206	=206	=206
!	!	!LO:TX:t=P:problem=niewyraźne źródło	!	!	!	!	!
16D\LL	.	16r)	.	4r	.	4r	.
!	!	!	!LO:DY:a	!	!	!	!
16G\J	.	(16G\KL	p	.	.	.	.
8F\	.	8A\	.	.	.	.	.
8D\J)	.	16B-X\L	.	8r	.	8r	.
.	.	16Bn\JJ)	.	.	.	.	.
=207	=207	=207	=207	=207	=207	=207	=207
!!linebreak:original
!LO:TX:a:t=a Tempo	!	!	!	!	!	!	!
(16E\LL	.	(4.c\	.	16r	.	(16ccc\LL	.
16F\J	.	.	.	(16d/KL	.	16bb-\J	.
8G\	.	.	.	8e/	.	8gg\	.
16F\L	.	.	.	16f/L	.	8aa\J	.
16E\JJ)	.	.	.	16g/JJ)	.	.	.
=208	=208	=208	=208	=208	=208	=208	=208
8D\	.	8d\)	.	(16a\LL	.	8ff\)	.
.	.	.	.	16b-\	.	.	.
4F\	.	4c\	.	16a\	.	4cc\	.
.	.	.	.	16g#X\J	.	.	.
.	.	.	.	8a\J)	.	.	.
=209	=209	=209	=209	=209	=209	=209	=209
8C\L	.	16f\LL	.	(4.b-\	sf	(16dd\LL	.
.	.	16e\J	.	.	.	16ee\J	.
8c\	.	8d\	.	.	.	8ff\	.
8C\J	.	8e\J	.	.	.	8gg\J	.
=210	=210	=210	=210	=210	=210	=210	=210
4F\	.	4f\	.	4a/)	.	16ff\LL	.
.	.	.	.	.	.	16ee\J	.
.	.	.	.	.	.	8cc\J)	.
8r	.	8r	.	8r	.	8r	.
=211||	=211||	=211||	=211||	=211||	=211||	=211||	=211||
!!pagebreak:original
*k[b-e-a-d-]	*	*k[b-e-a-d-]	*	*k[b-e-a-d-]	*	*k[b-e-a-d-]	*
*M6/8	*	*M6/8	*	*M6/8	*	*M6/8	*
*MM150	*	*MM150	*	*MM150	*	*MM150	*
!	!	!	!	!	!	!LO:TX:a:B:t=allegro	!
!	!	!	!	!	!	!LO:TX:a:B:t=Finale	!
!	!	!	!	!	!LO:DY:rj	!LO:TX:a:t=[quarter-dot]=100	!
2.r	.	2.r	.	(<8a-\L	p	(8cc\L	.
.	.	.	.	(8qcc/	.	(8qee-/	.
.	.	.	.	8b-\)	.	8dd-\)	.
.	.	.	.	8a-\J	.	8cc\J	.
.	.	.	.	8f/L	.	8a-\L	.
.	.	.	.	8en/	.	8g\	.
.	.	.	.	8d-/J	.	8f\J	.
=212	=212	=212	=212	=212	=212	=212	=212
!	!LO:DY:rj	!	!	!	!	!	!
8r	p	8r	p	(8c/)	.	(8en/)	.
8qB-/	.	8qd-/	.	.	.	.	.
(8A-\L	.	(<8c\L	.	[4d-/)	.	[4f/)	.
8G\J	.	8B-\J	.	.	.	.	.
8F\L	.	8A-/L	.	8d-/L]	.	8f/L]	.
8En\	.	8G/	.	(8en/	.	(<8g/	.
8D-\J)	.	8F/J)	.	8f/J	.	8a-/J	.
=213	=213	=213	=213	=213	=213	=213	=213
(8C\	.	(8En/	.	4a-/)	.	4cc\)	.
[4D-\)	.	[4F/)	.	.	.	.	.
.	.	.	.	(8g/	.	(8b-\	.
8D-\L]	.	8F/L]	.	4b-\)	.	4dd-\)	.
(8En\	.	(<8G/	.	.	.	.	.
8F\J	.	8A-/J	.	(8a-\	.	(8cc\	.
=214	=214	=214	=214	=214	=214	=214	=214
4A-\)	.	4c\)	.	8f/)	.	8a-/	.
.	.	.	.	8r	.	[4f/)	.
(8G\	.	(8B-\	.	8r	.	.	.
4B-\)	.	4d-\)	.	4r	.	8f/]	.
.	.	.	.	.	.	8r	.
(8A-\	.	(8c\	.	8r	.	8r	.
=215	=215	=215	=215	=215	=215	=215	=215
!!linebreak:original
!	!	!	!	!	!LO:DY:rj	!	!
8F\)	.	8A-/)	.	(<8a-\L	f	(8cc\L	f
.	.	.	.	8qcc/	.	8qee-/	.
[4C/	.	[4c\	.	8b-\	.	8dd-\	.
.	.	.	.	8a-\J	.	8cc\J	.
8C/]	.	8c\]	.	8f/L	.	8a-\L	.
8r	.	8r	.	8en/	.	8g\	.
8r	.	8r	.	8d-/J)	.	8f\J)	.
=216	=216	=216	=216	=216	=216	=216	=216
8r	.	8r	f	(8c/	.	(8en/	.
8qB-/	.	8qd-/	.	.	.	.	.
(8A-\L	.	(8c\L	.	[4d-/)	.	[4f/)	.
8G\J	.	8B-\J	.	.	.	.	.
8F\L	.	8A-/L	.	8d-/L]	.	8f/L]	.
8En\	.	8G/	.	(8en/	.	(<8g/	.
8D-\J)	.	8F/J)	.	8f/J	.	8a-/J	.
=217	=217	=217	=217	=217	=217	=217	=217
(8C\	.	(8En/	.	4a-/)	.	4cc\)	.
[4D-\)	.	[4F/)	.	.	.	.	.
.	.	.	.	(8g/	.	(8bn\	.
8D-\L]	.	8F/L]	.	4f/)	.	4a-/)	.
(8En\	.	(<8G/	.	.	.	.	.
8F\J	.	8A-/J	.	(8d-/	.	(8f/	.
=218	=218	=218	=218	=218	=218	=218	=218
4C\)	.	4c\)	.	8c/)	.	8en/)	.
.	.	.	.	[4c/	.	[4cc\	.
(8G\	.	(8Bn\	.	.	.	.	.
4F\)	.	4A-/)	.	8c/]	.	8cc\]	.
.	.	.	.	8r	.	8r	.
(8D-\	.	(8F/	.	8r	.	8r	.
=219	=219	=219	=219	=219	=219	=219	=219
!!linebreak:original
!	!	!	!	!	!LO:DY:rj	!	!LO:DY:rj
8C/)	.	8En/)	.	(8c/L	p	(8en/L	p
.	.	.	.	8qf/	.	(8qa-/	.
[4C/	.	[4c\	.	8en/	.	8g/)	.
.	.	.	.	8d-/J	.	8f/J	.
8C/]	.	8c\]	.	8c/	.	8e/	.
!	!	!	!	!	!	!	!LO:HP:t=cre-scen-do:ext=cd
8r	.	8r	.	4e/)	.	[4g/)	<
8r	.	8r	.	.	.	.	.
=220	=220	=220	=220	=220	=220	=220	=220
[4.C/	p	(8En/L	p	2.c/	.	8g\L]	.
!	!	!	!	!	!LO:HP:t=cre-scen-do:ext=cd	!	!
.	.	.	.	.	<	(8qcc/	.
.	.	8G/	.	.	.	(8b-\)	.
.	.	8F/J	.	.	.	8a-\J	.
4C/]	.	8E/	.	.	.	8g\	.
.	.	[4G/)	.	.	.	[4b-\)	.
8CC/	.	.	.	.	.	.	.
=221	=221	=221	=221	=221	=221	=221	=221
!	!LO:HP:t=cre-scen-do:ext=cd	!	!	!	!	!	!
[4.C/	<	8G/L]	.	2.en/	.	8b-\L]	.
.	.	(8qc/	.	.	.	.	.
.	.	(8B-/)	.	.	.	(8dd-\	.
.	.	8A-/J	.	.	.	8cc\J	.
4C/]	.	8G/	.	.	.	8b-\	.
.	.	[4B-/)	.	.	.	[4dd-\)	.
8CC/	.	.	.	.	.	.	.
=222	=222	=222	=222	=222	=222	=222	=222
[4.C/	.	8B-\L]	.	2.g/	[[	8dd-\L]	.
.	.	8qe-/	.	.	.	8qgg-X/	.
.	.	(8d-\	.	.	.	(8ff\	.
.	.	8c\J	.	.	.	8ee-\J	.
4C/]	.	8B-/	.	.	.	8dd-\	[
.	.	4d-\)	.	.	.	4ff\)	.
8CC/	[	.	.	.	.	.	.
=223	=223	=223	=223	=223	=223	=223	=223
!!linebreak:original
4F\	.	4c\	.	(8a-\L	f	(8cc\L	f
.	.	.	.	8qcc/	.	8qee-/	.
.	.	.	.	8b-\	.	8dd-\	.
8r	.	8r	.	8a-\J	.	8cc\J	.
4r	.	4r	.	8f/L	.	8a-\L	.
.	.	.	.	8en/	.	8g\	.
8r	.	8r	.	8d-/J)	.	8f\J	.
=224	=224	=224	=224	=224	=224	=224	=224
8r	f	8r	f	(8c/	.	(8en/)	.
8qB-/	.	(8qd-/	.	.	.	.	.
(8A-\L	.	(8c\L)	.	[4d-/)	.	[4f/)	.
8G\J	.	8B-\J	.	.	.	.	.
8F\L	.	8A-/L	.	8d-/L]	.	8f/L]	.
8En\	.	8G/	.	(8en/	.	(8g/	.
8D-\J)	.	8F/J)	.	8f/J	.	8a-/J	.
=225	=225	=225	=225	=225	=225	=225	=225
!	!	!	!	!	!	!LO:TX:b:i:t=accellerando	!
(8C/	.	(8En/	.	4a-/)	.	4cc\)	.
!LO:TX:b:i:t=accellerando.	!	!	!	!	!	!	!
[4D-\)	.	[4F/)	.	.	.	.	.
!	!	!	!	!LO:TX:b:i:t=accellerando	!	!	!
.	.	.	.	(8g/	.	(8b-\	.
8D-\L]	.	8F/L]	.	4b-\)	.	4dd-\)	.
(8En\	.	(8G/	.	.	.	.	.
[8F\J	.	[8A-/J	.	(8a-/	.	(8cc\	.
=226	=226	=226	=226	=226	=226	=226	=226
8F\]	.	8A-/]	.	4dd-\)	.	4ff\)	.
4G\)	.	4B-/)	.	.	.	.	.
.	.	.	.	(8cc\	.	(8een\	.
(8A-^\L	.	(8c^\L	.	8ff^\L	.	8aa-^\L	.
8B-\J)	.	8d-\J)	.	8een\J)	.	8gg\J)	.
8r;	.	8r;	.	8r;	.	8r;	.
=227	=227	=227	=227	=227	=227	=227	=227
!!pagebreak:original
*k[b-e-a-d-]	*	*k[b-e-a-d-]	*	*k[b-e-a-d-]	*	*k[b-e-a-d-]	*
!	!	!	!	!	!	!LO:TX:t=P:problem=Presto ołówkiem	!
4r	.	4r	.	[4.bb-\	ff	4r	.
8r	.	8r	.	.	.	8r	.
!	!	!	!	!	!	!	!LO:DY:rj
4G^\	f	4en^\	f	8.bb-\L]	.	8dd-^\	f
.	.	.	.	.	.	4r	.
.	.	.	.	(16aa-\L	.	.	.
8r	.	8r	.	16gg\	.	.	.
.	.	.	.	16ee-\JJ	.	.	.
=228	=228	=228	=228	=228	=228	=228	=228
2.r	.	2.r	.	16een\LL	.	2.r	.
.	.	.	.	16dd-\	.	.	.
.	.	.	.	16cc\	.	.	.
.	.	.	.	16bn\	.	.	.
.	.	.	.	16b-X\	.	.	.
.	.	.	.	16g\JJ)	.	.	.
.	.	.	.	[4.en/	.	.	.
=229	=229	=229	=229	=229	=229	=229	=229
!	!	!	!	!	!	!LO:TX:a:t=Lento	!
2.r	.	8r	.	4en/_	.	4r	.
.	.	16r	.	.	.	.	.
!	!	!	!LO:DY:rj	!	!	!	!
.	.	(16dd-\	p	.	.	.	.
!	!	!LO:TX:b:t=con dolore	!	!	!	!	!
.	.	16.cc\LL	.	16e/]	.	8r	.
.	.	.	.	16r	.	.	.
.	.	32g\JJk	.	.	.	.	.
!	!	!	!	!	!	!LO:TX:t=P:problem=niewyraźny zapisa w całym takcie	!
.	.	4.b-\	.	4r	.	16ryy	.
.	.	.	.	.	.	16ryy	.
.	.	.	.	.	.	16ryy	.
.	.	.	.	.	.	(16aa-\	p
!	!	!	!	!	!	!LO:TX:b:t=con dolore	!
.	.	.	.	8r	.	16.gg\LL	.
.	.	.	.	.	.	32dd-\JJk	.
=230	=230	=230	=230	=230	=230	=230	=230
4r	.	8dd-\L	.	4r	.	8ff\L	.
.	.	8cc\J)	.	.	.	8een\J	.
8r	.	8r	.	8r	.	8r)	.
!LO:TX:b:t=piz	!LO:DY:a	!LO:TX:b:t=piz	!LO:DY:a	!LO:TX:b:t=piz	!	!LO:TX:b:t=piz	!
8en\	sf	8b-\	sf	8dd-^\	.	8gg\	sf
4r	.	8r	.	8r	.	8r	.
.	.	8r	.	8r	.	8r	.
=231	=231	=231	=231	=231	=231	=231	=231
!!linebreak:original
!	!	!	!	!	!	!LO:TX:b:t=arco	!
!LO:TX:b:t=arco	!	!	!	!LO:TX:b:t=arco	!	!LO:TX:a:t=a Tempo	!
4r	.	8r	.	4r	.	4r	.
!	!	!	!LO:DY:rj	!	!	!	!
.	.	[4b-\	ff	.	.	.	.
8r	.	.	.	8r	.	8r	.
!	!LO:DY:rj	!	!	!	!LO:DY:rj	!LO:TX:b:t=arco	!LO:DY:rj
4G^\	f	8.b-\L]	.	4d-^>/	f	4en^>/	f
!	!	!	!	!	!	!LO:TX:t=P:problem=niewyraźne źródło	!
.	.	.	.	.	.	.	.
.	.	(16a-\L	.	.	.	.	.
8r	.	16g\	.	8r	.	8r	.
.	.	16f\JJ	.	.	.	.	.
=232	=232	=232	=232	=232	=232	=232	=232
2.r	.	16en\LL	.	2.r	.	2.r	.
.	.	16d-\	.	.	.	.	.
.	.	16c\	.	.	.	.	.
.	.	16Bn\	.	.	.	.	.
.	.	16B-X\	.	.	.	.	.
.	.	16G\JJ	.	.	.	.	.
.	.	[4.En/	.	.	.	.	.
=233	=233	=233	=233	=233	=233	=233	=233
!	!	!	!	!	!	!LO:TX:a:t=Lento	!
8r	p	4EnX/_)	.	4r	.	2.r	.
!LO:TX:b:t=con dolore	!	!	!	!	!	!	!
16r	.	.	.	.	.	.	.
(16d-\	.	.	.	.	.	.	.
16.c\LL	.	16E/]	.	8r	.	.	.
.	.	16r	.	.	.	.	.
32G\JJk	.	.	.	.	.	.	.
4.B-\	.	4r	.	8r	.	.	.
.	.	.	.	16r	.	.	.
!	!	!	!	!LO:TX:a:t=con dolore	!LO:DY:rj	!	!
.	.	.	.	(16a-/	p	.	.
.	.	8r	.	16.g/LL	.	.	.
.	.	.	.	32d-/JJk	.	.	.
=234	=234	=234	=234	=234	=234	=234	=234
8d-\L	.	4r	.	8f/L	.	4r	.
8c\J)	.	.	.	8en/J)	.	.	.
8r	.	8r	.	8r	.	8r	.
!LO:TX:b:t=piz	!	!LO:TX:b:t=piz	!	!LO:TX:b:t=piz	!	!LO:TX:b:t=piz	!
8En\	.	8B-/	.	8d-/	.	8g/	.
8r	.	8r	.	8r	.	8r	.
8r	.	8r	.	8r	.	8r	.
=235	=235	=235	=235	=235	=235	=235	=235
*M3/4	*	*M3/4	*	*M3/4	*	*M3/4	*
!LO:TX:b:i:t=arco	!LO:DY:rj	!	!	!	!	!LO:TX:a:t=andante	!
(4C/	p	4r	.	2.r	.	2.r	.
4.BB-/	.	4r	.	.	.	.	.
.	.	[4C/	.	.	.	.	.
8GG/	.	.	.	.	.	.	.
=236	=236	=236	=236	=236	=236	=236	=236
8GG/	.	4C/]	.	2.r	.	2.r	.
4BB-/	.	.	.	.	.	.	.
.	.	[2C/	sf	.	.	.	.
8AA-/L	.	.	.	.	.	.	.
8GG/	.	.	.	.	.	.	.
8FF/J)	.	.	.	.	.	.	.
=237	=237	=237	=237	=237	=237	=237	=237
!!linebreak:original
[2.EEn/	.	2C/]	.	(4c/	.	2.r	.
.	.	.	.	4.B-/	.	.	.
.	.	[4C/	sf	.	.	.	.
.	.	.	.	8G/	.	.	.
=238	=238	=238	=238	=238	=238	=238	=238
4.EEnX/]	.	4C/]	.	8G/	.	2.r	.
.	.	.	.	4B-/	.	.	.
.	.	[4C/	sf	.	.	.	.
8FF/	.	.	.	8A-/L	.	.	.
8EE/	.	8C/]	.	8G/J)	.	.	.
16r	.	16r	.	16r	.	.	.
16EEn/	sf	16G/	sf	16c/	sf	.	.
=239	=239	=239	=239	=239	=239	=239	=239
!	!LO:DY:rj	!	!	!	!	!	!
[2.DDn/	p	[2.F#X/	p	[>2.c/	p	8r	.
!	!	!	!	!	!	!LO:TX:b:i:t=con express.	!LO:DY:rj
.	.	.	.	.	.	(8ee-\L	p
.	.	.	.	.	.	8ddn\	.
.	.	.	.	.	.	8cc\	.
.	.	.	.	.	.	8.b-\	.
.	.	.	.	.	.	(16an\Jk)	.
=240	=240	=240	=240	=240	=240	=240	=240
2.DD/_	.	2.F#X/_	.	4.c/]	.	4ccc\	.
.	.	.	.	.	.	4cc\)	.
!	!	!	!	!	!LO:DY:rj	!	!
.	.	.	.	(8c/L	pp	.	.
.	.	.	.	8B-/	.	4r	.
.	.	.	.	8An/J)	.	.	.
=241	=241	=241	=241	=241	=241	=241	=241
!!linebreak:original
!	!	!LO:TX:b:i:t=con express.	!	!	!	!	!
2.DD/]	.	(8F#X/L]	.	[2.c/	.	2.ryy	.
.	.	8G/	.	.	.	.	.
.	.	8An/	.	.	.	.	.
.	.	8G/	.	.	.	.	.
.	.	8.F#/	.	.	.	.	.
.	.	16Fn/Jk)	.	.	.	.	.
=242	=242	=242	=242	=242	=242	=242	=242
2.DD-X/	.	2.F/	.	4c/]	.	4r	.
.	.	.	.	2Bn/	.	8r	.
!	!	!	!	!	!	!LO:TX:a:t=con estro poetico.	!LO:DY:rj
.	.	.	.	.	.	(8g/L	p <
.	.	.	.	.	.	8.g/	.
.	.	.	.	.	.	16g#X/Jk)	.
=243	=243	=243	=243	=243	=243	=243	=243
*k[b-enandn]	*	*k[b-enandn]	*	*k[b-enandn]	*	*k[b-enandn]	*
!	!LO:DY:rj	!	!LO:DY:rj	!	!LO:DY:rj	!	!LO:DY:rj
2CC/	mf	4F/	mf	[2.c/	mf	(4a/	[ mf
.	.	4.B-/	.	.	.	4.g/	.
[4C/	.	.	.	.	.	.	.
.	.	8G/	.	.	.	8e/	.
=244	=244	=244	=244	=244	=244	=244	=244
4C/]	.	8G/	.	8c/]	.	8e/	.
.	.	(4B-/	.	4c/	.	4g/	.
!LO:TX:b:i:t=rit	!	!	!	!	!	!	!
[2C/	.	.	.	.	.	.	.
!	!	!	!	!	!	!LO:TX:a:t=rit	!
.	.	8A/L	.	(8c/L	.	8f/L	.
!	!	!LO:TX:b:i:t=rit	!	!LO:TX:a:t=rit	!	!	!
.	.	8F/	.	8B-/	.	8d/	.
.	.	8D/J)	.	8G/J)	.	8B-/J)	.
=245	=245	=245	=245	=245	=245	=245	=245
4C/]	.	2.r;	.	2.r;	.	2.r;	.
4CC/	.	.	.	.	.	.	.
4r;	.	.	.	.	.	.	.
=246	=246	=246	=246	=246	=246	=246	=246
!!pagebreak:original
!	!	!	!	!	!	!LO:TX:b:i:t=piz	!
!	!	!	!	!LO:TX:b:i:t=piz	!LO:DY:rj	!LO:TX:B:a:t=allegro	!LO:DY:rj
8r	.	8r	p	8c/	sf	8c/	sf
(>8C/	.	(8c\	.	8r	.	8r	.
4.BB-/	.	4.B-/	.	4r	.	4r	.
!	!	!	!	!LO:TX:b:i:t=arco	!	!LO:TX:b:i:t=arco	!
.	.	.	.	(8qd/	.	(8qdd/	.
.	.	.	.	4c/)	sf	4cc/)	sf
8GG/)	.	8G/	.	.	.	.	.
=247	=247	=247	=247	=247	=247	=247	=247
(8GG\L	.	8G\L	.	4r	.	4r	.
8D\	.	8d\	.	.	.	.	.
.	.	.	.	(8qdd/	sf	(8qddd\	sf
8C\	.	8c\	.	4cc\)	.	4ccc\)	.
8BB-\J)	.	8B-\J)	.	.	.	.	.
.	.	.	.	(8qd/	.	8qdd/	.
4r	.	4r	.	4c/)	sf	4cc\	sf
=248	=248	=248	=248	=248	=248	=248	=248
!LO:TX:b:i:t=piz	!	!	!	!	!	!LO:TX:b:i:t=piz	!LO:DY:rj
8c\	sf	8r	f	8r	f	8c/	sf
8r	.	(8c\	.	(8dd\	.	8r	.
4r	.	4.B-/	.	4.b-\	.	4r	.
!LO:TX:b:i:t=arco	!	!	!	!	!	!	!
8qD/	.	.	.	.	.	(8qdd/	.
4C/	sf	.	.	.	.	4cc/)	sf
.	.	8G/	.	8g/	.	.	.
=249	=249	=249	=249	=249	=249	=249	=249
4r	.	8G\L	.	8g\L	.	4r	.
.	.	8d\	.	8dd\	.	.	.
(8qDD/	.	.	.	.	.	8qddd/	.
4CC/)	sf	8c\	.	8cc\	.	4ccc\	sf
.	.	8B-\J)	.	8b-\J)	.	.	.
8qD/	.	.	.	.	.	8qdd/	.
4C/	sf	4r	.	4r	.	4cc\	sf
=250	=250	=250	=250	=250	=250	=250	=250
!	!LO:DY:rj	!	!LO:DY:rj	!	!	!	!
8r	f	8r	f	8r	f	8r	f
(8D\L	.	(8d\L	.	(8dd\L	.	(8ddd\L	.
8C\	.	8c\	.	8cc\	.	8ccc\	.
8BB-\J	.	8B-\J	.	8b-\J	.	8bb-\J	.
8GG\)	.	8G/)	.	8g\)	.	8gg\)	.
8r	.	8r	.	8r	.	8r	.
=251	=251	=251	=251	=251	=251	=251	=251
!!linebreak:original
2.r	.	8r	.	8r	.	2.r	.
.	.	(8d\L	.	(8dd\L	.	.	.
.	.	8c\	.	8cc\	.	.	.
.	.	8B-\J	.	8b-\J	.	.	.
.	.	8G\)	.	8g\)	.	.	.
.	.	8r	.	8r	.	.	.
=252	=252	=252	=252	=252	=252	=252	=252
8r	ff	8r	ff	8r	ff	8r	ff
!	!	!	!	!LO:N:vis=4	!	!	!
(8D\L	.	(8d\L	.	(8dd\	.	(8ddd\L	.
!	!	!	!	!LO:N:vis=4	!	!	!
8C\	.	8c\	.	8cc\	.	8ccc\	.
!	!	!	!	!LO:N:vis=4	!	!	!
8BB-\	.	8B-\	.	8b-\	.	8bb-\	.
!	!	!	!	!LO:N:vis=4	!	!	!
8GG\)	.	8G\)	.	8g\)	.	8gg\)	.
!LO:TX:b:i:t=accelle	!	!LO:TX:b:i:t=accelle	!	!LO:TX:b:i:t=accelle	!	!LO:TX:b:i:t=accelle	!
!	!	!	!	!LO:N:vis=4	!	!	!
(8D\J	.	(8d\J	.	(8dd\	.	(8ddd\J	.
=253	=253	=253	=253	=253	=253	=253	=253
8C\L	.	8c\L	.	8cc\L	.	8ccc\L	.
8BB-\	.	8B-\	.	8b-\	.	8bb-\	.
8GG\)	.	8G\)	.	8g\)	.	8gg\)	.
(8D\	.	(8d\	.	(8dd\	.	(8ddd\	.
8C\	.	8c\	.	8cc\	.	8ccc\	.
8BB-\J	.	8B-\J	.	8b-\J	.	8bb-\J	.
=254	=254	=254	=254	=254	=254	=254	=254
8GG/)	sf	8G/)	sf	8g/)	.	8gg\)	.
8r	.	8r	.	8r	.	8r	.
(8qDD/	.	(8qD/	ff	.	.	.	.
[2CC^/)	sf	[2C^/)	sf	2r	.	2r	.
=255	=255	=255	=255	=255	=255	=255	=255
2.CC/_	.	2.C/_	.	2.r	.	2.r	.
=256	=256	=256	=256	=256	=256	=256	=256
!	!	!	!	!LO:TX:b:i:t=piz	!	!LO:TX:b:i:t=piz	!
8CC/]	.	8C/]	.	8B-/ 8g	sf	8e/ 8cc	sf
8r	.	8r	.	8r	.	8r	.
8qDD/	.	(8qD/	p	.	.	.	.
[2CC/	.	[2C/)	.	4r	.	4r	.
.	.	.	.	4r	.	4r	.
=257	=257	=257	=257	=257	=257	=257	=257
8CC/]	.	8C/]	.	2.r;	.	2.r;	.
8r	.	8r	.	.	.	.	.
4r	.	4r	.	.	.	.	.
4r;	.	4r;	.	.	.	.	.
=258||	=258||	=258||	=258||	=258||	=258||	=258||	=258||
!!linebreak:original
*k[b-]	*	*k[b-]	*	*k[b-]	*	*k[b-]	*
*M3/8	*	*M3/8	*	*M3/8	*	*M3/8	*
!LO:TX:b:i:t=piz:rj	!	!	!LO:DY:rj	!	!LO:DY:rj	!LO:TX:a:B:t=Presto con fuoco con allegrezza.	!
8F\	f	16.f\LL	f	16.cc\LL	f	16.aa'\LL	f
.	.	32f\JK	.	32cc\JK	.	32aa\JK	.
8r	.	8.cc\	.	8.b-\	.	8.gg\	.
!LO:TX:b:i:t=arco	!	!	!	!	!	!	!
[8c^\	.	.	.	.	.	.	.
.	.	16cc\Jk	.	16g\Jk	.	16ee\Jk	.
=259	=259	=259	=259	=259	=259	=259	=259
8c\]	.	16cc\KL	.	16g\KL	.	(16ee\KL	.
.	.	8cc\	.	8b-\	.	8gg\)	.
(4F\	.	.	.	.	.	.	.
.	.	16cc\L	.	16a\L	.	16ff'\L	.
.	.	16b-\	.	16g\	.	16ee'\	.
.	.	16b-\JJ	.	16f\JJ	.	16dd'\JJ	.
=260	=260	=260	=260	=260	=260	=260	=260
8G\)	.	16b-\LL	.	16e/LL	.	16cc'\LL	.
.	.	16b-\J	.	16e/J	.	16cc#X'\J	.
8r	.	8.b-\	.	8.f/	.	8.dd\	.
!LO:TX:b:i:t=piz	!	!	!	!	!	!	!
8C/	.	.	.	.	.	.	.
.	.	16e\Jk	.	16c/Jk	.	16b-\Jk	.
=261	=261	=261	=261	=261	=261	=261	=261
8F\L	.	16e\LL	.	16c/LL	.	16b-'\LL	.
.	.	16f\JJ	.	16c/JJ	.	16a'\JJ	.
8FF\J	.	8r	.	8r	.	8r	.
8r	.	16r	.	16r	.	16r	.
.	.	16f\	.	16a/	.	16cc\	.
=262	=262	=262	=262	=262	=262	=262	=262
!!linebreak:original
8F\	.	16.f\LL	.	16.cc\LL	.	16.aa\LL	.
.	.	32f\JK	.	32cc\JK	.	32aa\JK	.
8r	.	8.cc\	.	8.b-\	.	8.gg\	.
!LO:TX:b:i:t=arco	!	!	!	!	!	!	!
[8c\	.	.	.	.	.	.	.
.	.	16cc\Jk	.	16g\Jk	.	16ee\Jk	.
=263	=263	=263	=263	=263	=263	=263	=263
8c\]	.	16cc\KL	.	16g\KL	.	16ee\KL	.
.	.	8cc\	.	8b-\	.	8gg\	.
4D\	.	.	.	.	.	.	.
.	.	16cc\L	.	16a\L	.	16ff\L	.
.	.	16cc\	.	16g\	.	16ee\	.
.	.	16cc\JJ	.	16f\JJ	.	16dd\JJ	.
=264	=264	=264	=264	=264	=264	=264	=264
8G\	.	16cc\LL	.	16f#X/LL	.	16dd#X\LL	.
.	.	16cc\J	.	16g/J	.	16ee\J	.
.	.	.	.	.	.	8qgg	.
8r	.	8.cc\	.	8.a/	.	8.ff\	.
!LO:TX:b:i:t=piz	!	!	!	!	!	!	!
8GG/	.	.	.	.	.	.	.
.	.	16bn\Jk	.	16fn/Jk	.	16ee\Jk	.
=265	=265	=265	=265	=265	=265	=265	=265
8C/	.	16g\LL	.	16f/LL	.	16dd\LL	.
.	.	16g\JJ	.	16e/JJ	.	16cc\JJ	.
8CC/	.	8r	.	8r	.	16r	.
.	.	.	.	.	.	16cc\	.
8r	.	8r	.	8r	.	24cc\LL	.
.	.	.	.	.	.	24ee\	.
.	.	.	.	.	.	24gg\JJ	.
=266	=266	=266	=266	=266	=266	=266	=266
!!pagebreak:original
!	!	!	!	!	!	!LO:TX:t=P:problem=nieczytelne źródło	!
8r	.	8r	.	8r	.	16.ryy	.
.	.	.	.	.	.	32ryy	.
8r	.	8r	.	8r	.	8ff#X\L	.
!LO:TX:b:i:t=arco	!LO:DY:a	!	!	!	!	!	!
[8c\	sf	32r	.	32r	.	(24gg\L	.
.	.	(32b-\LLL	.	(32dd\LLL	.	.	.
.	.	.	.	.	.	24aa\	.
.	.	32f#X\	.	32ee-X\	.	.	.
.	.	.	.	.	.	24bb-\JJ	.
.	.	32g\JJJ	.	32dd\JJJ	.	.	.
=267	=267	=267	=267	=267	=267	=267	=267
4c\]	.	8a\)	.	8ff#X\)	.	16.ddd\LL)	.
.	.	.	.	.	.	(32ddd\JK	.
.	.	8r	.	8r	.	8aa\)	.
[8C\	sf	32r	.	32r	.	(24bb-\L	.
.	.	(32dd\LLL	.	(32ff#\LLL	.	.	.
.	.	.	.	.	.	24ccc#X\	.
.	.	32a\	.	32gg\	.	.	.
.	.	.	.	.	.	24ddd\JJ	.
.	.	32b-\JJJ	.	32gg\JJJ	.	.	.
=268	=268	=268	=268	=268	=268	=268	=268
4C/]	.	16.ee\LL)	.	[4.bb-\)	.	16.ggg\LL)	.
.	.	32dd\JK	.	.	.	(32fff\JK	.
.	.	8dd\	.	.	.	8fff\	.
.	.	.	.	.	.	(32qqggg/LLL	.
.	.	.	.	.	.	32qqfff/JJJ)	.
[8CC/	sf	16cc\L	.	.	.	16eee\L	.
.	.	16dd\JJ	.	.	.	16ddd\JJ	.
=269	=269	=269	=269	=269	=269	=269	=269
8CC/L]	.	16.dd\LL	.	4bb-\]	.	16.fff\LL)	.
.	.	32cc\K	.	.	.	(32eee\K	.
8C/J	.	16cc\	.	.	.	16eee\	.
.	.	16dd\	.	.	.	16ddd\	.
8r	.	16ee\JJ	.	8r	.	16ccc\	.
.	.	.	.	.	.	(32qqbb-/LLL	.
.	.	.	.	.	.	32qqccc/JJJ)	.
.	.	16r	.	.	.	16bb-\JJ)	.
=270	=270	=270	=270	=270	=270	=270	=270
!!linebreak:original
!LO:TX:b:i:t=piz	!	!	!	!	!	!	!
!LO:TX:t=P:problem=przepełniona miara taktu	!	!	!	!	!	!	!
8F\	.	16.f\LL	.	16.cc\LL	.	(16.aa\LL	.
.	.	32f\JK	.	(32cc\JK	.	32aa\JK	.
8r	sf	8.cc\	.	8.b-\	.	8.gg\	.
!LO:N:vis=4	!	!	!	!	!	!	!
!LO:TX:b:i:t=arco	!LO:DY:a	!	!	!	!	!	!
[8c\	sf	.	.	.	.	.	.
.	.	16cc\Jk	.	16g\Jk)	.	16ee\Jk)	.
=271	=271	=271	=271	=271	=271	=271	=271
8c\]	.	16cc\KL	.	(16g\KL	.	(16ee\KL	.
.	.	8cc\	.	8b-\)	.	8gg\)	.
(4F\	.	.	.	.	.	.	.
.	.	16cc\L	.	(16a\L	.	(16ff\L	.
.	.	16b-\	.	16g\	.	16ee\	.
.	.	16b-\JJ	.	16f\JJ	.	16dd\JJ	.
=272	=272	=272	=272	=272	=272	=272	=272
4c\)	.	4.b-^\	.	(16.e/LL)	.	16.cc\LL	.
.	.	.	.	32e/JK	.	32cc#X\JK	.
.	.	.	.	8.f/)	.	8.dd\)	.
[8C/	.	.	.	.	.	.	.
.	.	.	.	(16e/Jk	.	(16cc#\Jk	.
=273	=273	=273	=273	=273	=273	=273	=273
4C/]	.	4.b-^\	.	16.e/LL	.	16.cc#X\LL	.
.	.	.	.	32f/JK	.	32dd\JK	.
.	.	.	.	8.g-X/)	.	8.ee-X\)	.
[8c\	.	.	.	.	.	.	.
.	.	.	.	16f/Jk	.	16dd\Jk	.
=274	=274	=274	=274	=274	=274	=274	=274
!!linebreak:original
4c\]	.	4.b-^\	.	(16.f/LL	.	(16.dd\LL	.
.	.	.	.	32f#X/JK	.	32dd#X\JK	.
.	.	.	.	8.gn/)	.	8.ee\)	.
[8C/	.	.	.	.	.	.	.
.	.	.	.	16f#/Jk	.	(16dd#\Jk	.
=275	=275	=275	=275	=275	=275	=275	=275
4C/]	.	8b-'\	.	(16.f#X/LL	.	16.dd#X\LL	.
.	.	.	.	32g/JK	.	32ee\JK	.
.	.	4cc^\	.	8.a/)	.	8.ff\)	.
8c\	.	.	.	.	.	.	.
.	.	.	.	16g/Jk	.	16ee\Jk	.
=276	=276	=276	=276	=276	=276	=276	=276
8F'\L	.	8cc\	.	16.a'\LL	.	16.ff\LL	.
.	.	.	.	32f'\JK	.	(32aa\JK	.
8C^\	.	[4cc\	.	(8e\	.	8gg\	.
(8c^\J	.	.	.	16g\L	.	16ee\L	.
.	.	.	.	16cc\JJ)	.	16cc\JJ)	.
=277	=277	=277	=277	=277	=277	=277	=277
8F'\L)	.	8cc\]	.	16.a'/LL	.	16.ff'\LL	.
.	.	.	.	32f'/JK	.	32aa'\JK	.
8C\	.	[4cc\	.	(8e/	.	(8gg\	.
8c^\J	.	.	.	16g/L	.	16ee\L	.
.	.	.	.	16c/JJ)	.	16ccc\JJ)	.
=278	=278	=278	=278	=278	=278	=278	=278
!!linebreak:original
8F'\L	.	8cc\]	.	16.a-X\LL	.	16.ff\LL	.
.	.	.	.	32f\JK	.	32aa-X\JK	.
8C'\	.	[4cc\	.	(8e\	.	(8gg\	.
(8c^\J	.	.	.	16g\L	.	16ee\L	.
.	.	.	.	16cc\JJ)	.	16cc\JJ)	.
=279	=279	=279	=279	=279	=279	=279	=279
*rep	*	*	*	*	*	*	*
8F'\L)	.	8cc\]	.	16.a-X/LL	.	16.ff\LL	.
.	.	.	.	32f/JK	.	32aa-X\JK	.
8C"\	.	4cc\	.	(8e/	.	(8gg\	.
8c^\J	.	.	.	16g/L	.	16ee\L	.
.	.	.	.	16c/JJ)	.	16ccc\JJ)	.
*Xrep	*	*	*	*	*	*	*
=280	=280	=280	=280	=280	=280	=280	=280
8F^\L	.	8cc^\L	.	8an^/L	.	16.ff\LL	.
.	.	.	.	.	.	32gg\JK	.
8FF\	.	8cc\	.	8a/	.	(8ff\	.
[8F^\J	.	8c\J	.	8a/J	.	16cc\L	.
.	.	.	.	.	.	16a\JJ)	.
=281	=281	=281	=281	=281	=281	=281	=281
4F'\]	.	4d-X^\	.	16.b-'\LL	ff	8ff^\L	.
.	.	.	.	32cc'\JK	.	.	.
.	.	.	.	(8b-\	.	8fff'\	.
8F\	.	8d-\	.	16f\L	.	[8ff^\J	.
.	.	.	.	16d-X\JJ)	.	.	.
=282	=282	=282	=282	=282	=282	=282	=282
!!pagebreak:original
8F\L	.	16.c\LL	.	8a/L	.	8ff\L]	.
.	.	32d\JK	.	.	.	.	.
8FF\	.	(8c\	.	8a/	.	8ff\	.
[8F^\J	.	16A\L	.	8a/J	.	8ff\J	.
.	.	16F\JJ)	.	.	.	.	.
=283	=283	=283	=283	=283	=283	=283	=283
16.F\LL]	.	4d-X^\	.	4b-^\	.	8ff^\L	.
32G-X\JK	.	.	.	.	.	.	.
(8F\	.	.	.	.	.	8fff\	.
16D-X\L	.	8d-\	.	8b-\	.	[8ff^\J	.
16BB-\JJ)	.	.	.	.	.	.	.
=284	=284	=284	=284	=284	=284	=284	=284
16FF/	.	16c\	.	16a/	.	16ff\]	.
16r	.	16r	.	16r	.	16r	.
!	!	!	!LO:DY:rj	!	!	!	!
8.F\L	ff	8.F/L	ff	8.f/L	ff	8.f/L	ff
16E\Jk	sf	16E/Jk	.	16e/Jk	.	16e/Jk	.
=285	=285	=285	=285	=285	=285	=285	=285
16F\LL	<	16F\LL	<	16f/LL	<	16f\LL	<
16AA\	.	16A\	.	16A/	.	16a\	.
16C\	.	16c\	.	16c/	.	16cc\	.
16E\	.	16e\	.	16e/	.	16ee\	.
16F\	.	16f\	.	16f/	.	16ff\	.
16A\JJ	.	16a\JJ	[[	16a/JJ	[[	16aa\JJ	.
=286	=286	=286	=286	=286	=286	=286	=286
(16c\LL	[	(16cc\LL	.	(16cc\LL	.	(16ccc\LL	[
16f\JJ)	.	16ff\JJ)	.	16ff\JJ)	.	16fff\JJ)	.
!	!LO:DY:a	!	!LO:DY:a	!	!LO:DY:a	!	!LO:DY:a
[4d-X\	sf	[4dd-X\	sf	[4dd-X\	sf	[4ddd-X\	sf
=287	=287	=287	=287	=287	=287	=287	=287
!!linebreak:original
8d-X\L]	.	8dd-X\L]	.	8dd-X\L]	.	8ddd-X\L]	.
8D-X'\J	.	8d-X\J	.	8d-X'\J	.	8dd-X'\J	.
8r;	.	8r;	.	8r;	.	8r;	.
=288	=288	=288	=288	=288	=288	=288	=288
!LO:TX:t=P:problem=niewyraźne źródło	!LO:DY:rj	!	!LO:DY:rj	!	!	!LO:TX:a:t=Andante	!
8B-\L	p	[4.f\	p	[4.a-X/	p	[4.dd-X\	p
8B-\	.	.	.	.	.	.	.
8Bn\J	.	.	.	.	.	.	.
=289	=289	=289	=289	=289	=289	=289	=289
8Bn\L	.	4f\]	.	8a-/L]	.	8dd-\L]	.
8c\J	.	.	.	8an/J	.	8cc\J	.
8r	.	8r	.	8r	.	8r	.
=290	=290	=290	=290	=290	=290	=290	=290
!	!LO:DY:rj	!	!LO:DY:rj	!	!LO:DY:rj	!LO:TX:b:t=dolce	!LO:DY:rj
(4.CC/	f <	[4.C/	f <	4.B-/ 4.en	f <	(16cc\LL	f <
.	.	.	.	.	.	16cc#X\J	.
.	.	.	.	.	.	8.dd\	.
.	[[	.	[[	.	[	16ccn\Jk)	[[
=291	=291	=291	=291	=291	=291	=291	=291
4FF/)	.	4C/]	>	4A/ 4f	>	(8cc\L	>
.	.	.	.	.	.	8f\)	.
(8DD-X/	sf	(8F/	]	(8B-/ 8f	]	(8ff\J	]
=292	=292	=292	=292	=292	=292	=292	=292
4FF/)	.	4C/)	.	4A/) 4f	.	8f\L)	.
.	.	.	.	.	.	(8aa\	.
(8DD-X'/	sf	(8F/	.	(8B-/ 8f	.	8f\J)	.
=293	=293	=293	=293	=293	=293	=293	=293
4FF/)	.	4C/)	.	4A/) 4f	.	(8ccc\L	.
.	.	.	.	.	.	8f\)	.
(8DD-X'/	sf	(8F/	.	(8B-/ 8f	.	[8fff\J	.
=294	=294	=294	=294	=294	=294	=294	=294
4.FF/)	.	4.C/)	.	4.A/) 4.f	.	8fff\]	.
.	.	.	.	.	.	[4ff\	.
=295	=295	=295	=295	=295	=295	=295	=295
!LO:TX:t=P:mixedbeam:problem	!	!	!	!	!LO:DY:rj	!	!
8Dn\L	.	4.D/	sf	4.A/ 4.f	ff	4.ff\_	.
8DDn/J	.	.	.	.	.	.	.
!LO:TX:t=P:problem=niepełna miara w takcie	!	!	!	!	!	!	!
8ryy	.	.	.	.	.	.	.
=296	=296	=296	=296	=296	=296	=296	=296
8G\L	.	8B-/L	.	8B-/L 8f	.	8ff\L]	.
*	*	*	*	*	*	*tremolo	*
8GG\J	.	8G/	.	8B-/ 8f	.	16f\L	<
.	.	.	.	.	.	16f\	.
*	*	*	*	*	*	*	*
!LO:TX:t=P:problem=niewyraźne źródło	!	!	!	!	!	!	!
8ryy	.	8G/J	.	8B-/J 8f	.	16b-\	.
.	.	.	.	.	.	16b-\JJ	.
=297	=297	=297	=297	=297	=297	=297	=297
8GG/L	.	8G/L	.	8B-/L 8f	.	16dd\LL	.
.	.	.	.	.	.	16dd\	.
8GG/	.	8G/	.	8B-/ 8f	.	16ff\	.
.	.	.	.	.	.	16ff\	.
8GG/J	.	8G/J	.	8B-/J 8f	.	16bb-\	.
.	.	.	.	.	.	16bb-\JJ	[[
*	*	*	*	*	*	*Xtremolo	*
=298	=298	=298	=298	=298	=298	=298	=298
!!linebreak:original
8GG/	.	8G/	.	8B-/ 8en	.	8ddd\	.
8r	.	8r	.	8r	.	8r	.
8r	.	8r	.	8r	.	8r	.
=299	=299	=299	=299	=299	=299	=299	=299
4.C/	sf	4.G/	sf	4.B-/ 4.en	sf	4.cc\	sf
=300	=300	=300	=300	=300	=300	=300	=300
8FF\L	.	8F/	.	8A/ 8f	.	8ff\	.
*tremolo	*	*	*	*	*	*	*
16c\L	.	8r	.	8r	.	8r	.
16c\	.	.	.	.	.	.	.
16A\	.	8A/	.	8c/	.	8f\	<
16A\JJ	.	.	.	.	.	.	.
=301	=301	=301	=301	=301	=301	=301	=301
*	*	*tremolo	*	*tremolo	*	*	*
16F\LL	.	8A/L	.	8c/L	.	8f/L	.
16F\	.	.	.	.	.	.	.
16C\	.	8A/	.	8c/	.	8f/	.
16C\	.	.	.	.	.	.	.
16AA\	.	8A/J	.	8c/J	.	8f/J	.
16AA\JJ	.	.	.	.	.	.	.
*Xtremolo	*	*Xtremolo	*	*Xtremolo	*	*	*
=302	=302	=302	=302	=302	=302	=302	=302
8FF/	.	8A/	.	8c/	.	8f/	[[
8r	.	8r	.	8r	.	8r	.
8r	.	8r	.	8r	.	8r	.
=303	=303	=303	=303	=303	=303	=303	=303
8F\	.	8c\	.	8f/	.	8a\ 8ff	.
8r	.	8r	.	8r	.	8r	.
8r	.	8r	.	8r	.	8r	.
=304	=304	=304	=304	=304	=304	=304	=304
8FF/	.	8A/	.	8c/	.	8f/	.
8r	.	8r	.	8r	.	8r	.
8r	.	8r	.	8r	.	8r	.
==	==	==	==	==	==	==	==
*-	*-	*-	*-	*-	*-	*-	*-
!!!system-decoration: {(s1,s2,s3,s4)}
!!!RDF**kern: > = above
!!!RDF**kern: < = below
!!!ENC: Anastazja Marusiak
!!!END: 2021-10-26
!!!ENC: Krzysztof Stępień
!!!END: 2021-10-29
!!!YEC: Copyright 2022 Narodowy Instytut Fryderyka Chopina (https://polishscores.org)
!!!YEM: License CC-BY-4.0 (https://creativecommons.org/licenses/by/4.0)
